data/VSCO_CANON/VSCO Film 05 Night-Tungsten - Canon/~C - Kodak UltraMax 800 Night-Tungsten Alt.lrtemplate
s = {
	id = "86DB611F-9E56-4475-9233-047BE4F59C97",
	internalName = "Kodak UltraMax 800 Night Warm",
	title = "C - Kodak UltraMax 800 Night/Tungsten Alt",
	type = "Develop",
	value = {
		settings = {
			Blacks2012 = 0,
			BlueHue = -5,
			BlueSaturation = -25,
			CameraProfile = "Kodak UM 800 - C",
			Clarity2012 = -5,
			Contrast2012 = 0,
			ConvertToGrayscale = false,
			EnableCalibration = true,
			EnableColorAdjustments = true,
			EnableDetail = true,
			EnableEffects = true,
			EnableSplitToning = true,
			GrainAmount = 30,
			GrainFrequency = 65,
			GrainSize = 40,
			GreenHue = 35,
			GreenSaturation = -20,
			Highlights2012 = -45,
			HueAdjustmentAqua = 10,
			HueAdjustmentBlue = -5,
			HueAdjustmentGreen = 20,
			HueAdjustmentMagenta = 20,
			HueAdjustmentOrange = 0,
			HueAdjustmentPurple = 20,
			HueAdjustmentRed = 0,
			HueAdjustmentYellow = 5,
			LuminanceAdjustmentAqua = 10,
			LuminanceAdjustmentBlue = -15,
			LuminanceAdjustmentGreen = 0,
			LuminanceAdjustmentMagenta = 15,
			LuminanceAdjustmentOrange = 5,
			LuminanceAdjustmentPurple = 20,
			LuminanceAdjustmentRed = -10,
			LuminanceAdjustmentYellow = 10,
			ParametricDarks = 5,
			ParametricHighlightSplit = 75,
			ParametricHighlights = 0,
			ParametricLights = 10,
			ParametricMidtoneSplit = 48,
			ParametricShadowSplit = 20,
			ParametricShadows = 0,
			ProcessVersion = "6.7",
			RedHue = 20,
			RedSaturation = 45,
			Saturation = 0,
			SaturationAdjustmentAqua = 0,
			SaturationAdjustmentBlue = -20,
			SaturationAdjustmentGreen = -55,
			SaturationAdjustmentMagenta = -45,
			SaturationAdjustmentOrange = -25,
			SaturationAdjustmentPurple = -40,
			SaturationAdjustmentRed = -30,
			SaturationAdjustmentYellow = -25,
			ShadowTint = -2,
			Shadows2012 = 20,
			SharpenDetail = 25,
			SharpenEdgeMasking = 0,
			SharpenRadius = 1,
			Sharpness = 0,
			SplitToningBalance = -86,
			SplitToningHighlightHue = 15,
			SplitToningHighlightSaturation = 0,
			SplitToningShadowHue = 0,
			SplitToningShadowSaturation = 0,
			ToneCurveName2012 = "UltraMax 800 N/T Alt",
			ToneCurvePV2012 = {
				0,
				26,
				22,
				32,
				77,
				72,
				133,
				133,
				189,
				191,
				255,
				245,
			},
			ToneCurvePV2012Blue = {
				0,
				0,
				31,
				15,
				115,
				117,
				181,
				195,
				255,
				255,
			},
			ToneCurvePV2012Green = {
				0,
				0,
				35,
				14,
				67,
				48,
				115,
				118,
				176,
				197,
				255,
				255,
			},
			ToneCurvePV2012Red = {
				0,
				0,
				32,
				15,
				78,
				64,
				173,
				194,
				255,
				255,
			},
			Vibrance = 0,
			Whites2012 = -30,
		},
		uuid = "0FCEFAB5-A29F-41ED-BB56-C5F4ABD4A004",
	},
	version = 0,
}
