data/VSCO_CANON/VSCO Film 07 - Canon/C - Agfa RSX 200 II Warm.lrtemplate
s = {
	id = "A94D11E9-A535-4591-B7C6-F73C46698DCA",
	internalName = "C - Agfa RSX 200 II Warm",
	title = "C - Agfa RSX 200 II Warm",
	type = "Develop",
	value = {
		settings = {
			Blacks2012 = 5,
			BlueHue = -15,
			BlueSaturation = 15,
			CameraProfile = "RSX 200 II - C",
			Clarity2012 = 0,
			Contrast2012 = 0,
			ConvertToGrayscale = false,
			EnableCalibration = true,
			EnableColorAdjustments = true,
			EnableDetail = true,
			EnableEffects = true,
			EnableSplitToning = true,
			GrainAmount = 25,
			GrainFrequency = 50,
			GrainSize = 20,
			GreenHue = 35,
			GreenSaturation = -40,
			Highlights2012 = -15,
			HueAdjustmentAqua = 0,
			HueAdjustmentBlue = 5,
			HueAdjustmentGreen = -15,
			HueAdjustmentMagenta = 15,
			HueAdjustmentOrange = -2,
			HueAdjustmentPurple = 15,
			HueAdjustmentRed = 15,
			HueAdjustmentYellow = 0,
			LuminanceAdjustmentAqua = -10,
			LuminanceAdjustmentBlue = -20,
			LuminanceAdjustmentGreen = -20,
			LuminanceAdjustmentMagenta = 0,
			LuminanceAdjustmentOrange = 0,
			LuminanceAdjustmentPurple = -10,
			LuminanceAdjustmentRed = -25,
			LuminanceAdjustmentYellow = -10,
			ParametricDarks = 0,
			ParametricHighlightSplit = 70,
			ParametricHighlights = 0,
			ParametricLights = 0,
			ParametricMidtoneSplit = 38,
			ParametricShadowSplit = 18,
			ParametricShadows = 0,
			ProcessVersion = "6.7",
			RedHue = 15,
			RedSaturation = 15,
			Saturation = 0,
			SaturationAdjustmentAqua = -5,
			SaturationAdjustmentBlue = -20,
			SaturationAdjustmentGreen = -5,
			SaturationAdjustmentMagenta = -25,
			SaturationAdjustmentOrange = 0,
			SaturationAdjustmentPurple = -15,
			SaturationAdjustmentRed = -8,
			SaturationAdjustmentYellow = -15,
			ShadowTint = 0,
			Shadows2012 = 10,
			SharpenDetail = 25,
			SharpenEdgeMasking = 0,
			SharpenRadius = 1,
			Sharpness = 20,
			SplitToningBalance = 0,
			SplitToningHighlightHue = 0,
			SplitToningHighlightSaturation = 0,
			SplitToningShadowHue = 0,
			SplitToningShadowSaturation = 0,
			ToneCurveName2012 = "Agfa RSX 200 II Warm",
			ToneCurvePV2012 = {
				0,
				0,
				255,
				255,
			},
			ToneCurvePV2012Blue = {
				0,
				0,
				134,
				121,
				255,
				243,
			},
			ToneCurvePV2012Green = {
				0,
				0,
				65,
				61,
				127,
				127,
				255,
				255,
			},
			ToneCurvePV2012Red = {
				0,
				0,
				39,
				34,
				124,
				125,
				199,
				201,
				255,
				255,
			},
			Vibrance = 0,
			Whites2012 = 0,
		},
		uuid = "772F98EE-E87F-4BB3-BD14-8A42F655B008",
	},
	version = 0,
}
