data/VSCO_CANON/VSCO Film 07 - Canon/C - Fuji Sensia 100 Alt.lrtemplate
s = {
	id = "8AC8719D-9778-486B-A8E2-B480E1A52953",
	internalName = "C - Fuji Sensia 100 Alt",
	title = "C - Fuji Sensia 100 Alt",
	type = "Develop",
	value = {
		settings = {
			Blacks2012 = 10,
			BlueHue = 10,
			BlueSaturation = -25,
			CameraProfile = "Sensia 100 - C",
			Clarity2012 = 0,
			Contrast2012 = 0,
			ConvertToGrayscale = false,
			EnableCalibration = true,
			EnableColorAdjustments = true,
			EnableDetail = true,
			EnableEffects = true,
			EnableSplitToning = true,
			GrainAmount = 15,
			GrainFrequency = 60,
			GrainSize = 30,
			GreenHue = 20,
			GreenSaturation = -35,
			Highlights2012 = -15,
			HueAdjustmentAqua = 0,
			HueAdjustmentBlue = -5,
			HueAdjustmentGreen = 5,
			HueAdjustmentMagenta = 0,
			HueAdjustmentOrange = 0,
			HueAdjustmentPurple = 5,
			HueAdjustmentRed = 0,
			HueAdjustmentYellow = 0,
			LuminanceAdjustmentAqua = -10,
			LuminanceAdjustmentBlue = -20,
			LuminanceAdjustmentGreen = 0,
			LuminanceAdjustmentMagenta = -10,
			LuminanceAdjustmentOrange = 0,
			LuminanceAdjustmentPurple = 0,
			LuminanceAdjustmentRed = -15,
			LuminanceAdjustmentYellow = 0,
			ParametricDarks = 0,
			ParametricHighlightSplit = 67,
			ParametricHighlights = 0,
			ParametricLights = 0,
			ParametricMidtoneSplit = 46,
			ParametricShadowSplit = 22,
			ParametricShadows = 0,
			ProcessVersion = "6.7",
			RedHue = 10,
			RedSaturation = 30,
			Saturation = 0,
			SaturationAdjustmentAqua = -10,
			SaturationAdjustmentBlue = 0,
			SaturationAdjustmentGreen = -25,
			SaturationAdjustmentMagenta = -10,
			SaturationAdjustmentOrange = 0,
			SaturationAdjustmentPurple = 0,
			SaturationAdjustmentRed = -15,
			SaturationAdjustmentYellow = -10,
			ShadowTint = 0,
			Shadows2012 = 10,
			SharpenDetail = 25,
			SharpenEdgeMasking = 0,
			SharpenRadius = 1,
			Sharpness = 25,
			SplitToningBalance = 0,
			SplitToningHighlightHue = 0,
			SplitToningHighlightSaturation = 0,
			SplitToningShadowHue = 0,
			SplitToningShadowSaturation = 0,
			ToneCurveName2012 = "Fuji Sensia 100 Alt",
			ToneCurvePV2012 = {
				0,
				0,
				31,
				28,
				90,
				92,
				255,
				255,
			},
			ToneCurvePV2012Blue = {
				0,
				0,
				21,
				7,
				87,
				68,
				126,
				122,
				198,
				209,
				255,
				255,
			},
			ToneCurvePV2012Green = {
				0,
				0,
				21,
				9,
				87,
				69,
				122,
				124,
				194,
				204,
				255,
				255,
			},
			ToneCurvePV2012Red = {
				0,
				0,
				20,
				7,
				86,
				69,
				123,
				123,
				195,
				212,
				255,
				255,
			},
			Vibrance = 0,
			Whites2012 = -10,
		},
		uuid = "2E67F4F8-1C2C-4E3F-A414-78A50E794FF5",
	},
	version = 0,
}
