data/VSCO_CANON/VSCO Film 07 - Canon/C - Kodak Ektachrome 64 - -.lrtemplate
s = {
	id = "A1565848-30FD-4420-A807-D279CD016E8C",
	internalName = "C - Kodak Ektachrome 64 - -",
	title = "C - Kodak Ektachrome 64 - -",
	type = "Develop",
	value = {
		settings = {
			Blacks2012 = 25,
			BlueHue = 5,
			BlueSaturation = -20,
			CameraProfile = "Ektachrome 64 - C",
			Clarity2012 = 0,
			Contrast2012 = 0,
			ConvertToGrayscale = false,
			EnableCalibration = true,
			EnableColorAdjustments = true,
			EnableDetail = true,
			EnableEffects = true,
			EnableSplitToning = true,
			GrainAmount = 0,
			GrainFrequency = 60,
			GrainSize = 20,
			GreenHue = 45,
			GreenSaturation = -45,
			Highlights2012 = -25,
			HueAdjustmentAqua = 5,
			HueAdjustmentBlue = 5,
			HueAdjustmentGreen = 10,
			HueAdjustmentMagenta = 0,
			HueAdjustmentOrange = 0,
			HueAdjustmentPurple = 5,
			HueAdjustmentRed = 10,
			HueAdjustmentYellow = 10,
			LuminanceAdjustmentAqua = -15,
			LuminanceAdjustmentBlue = -15,
			LuminanceAdjustmentGreen = -15,
			LuminanceAdjustmentMagenta = -5,
			LuminanceAdjustmentOrange = -5,
			LuminanceAdjustmentPurple = -10,
			LuminanceAdjustmentRed = -15,
			LuminanceAdjustmentYellow = -15,
			ParametricDarks = 0,
			ParametricHighlightSplit = 81,
			ParametricHighlights = 0,
			ParametricLights = 0,
			ParametricMidtoneSplit = 43,
			ParametricShadowSplit = 25,
			ParametricShadows = 0,
			ProcessVersion = "6.7",
			RedHue = 25,
			RedSaturation = 35,
			Saturation = 0,
			SaturationAdjustmentAqua = 10,
			SaturationAdjustmentBlue = 20,
			SaturationAdjustmentGreen = -10,
			SaturationAdjustmentMagenta = -25,
			SaturationAdjustmentOrange = -5,
			SaturationAdjustmentPurple = -10,
			SaturationAdjustmentRed = -15,
			SaturationAdjustmentYellow = 0,
			ShadowTint = 0,
			Shadows2012 = 25,
			SharpenDetail = 25,
			SharpenEdgeMasking = 0,
			SharpenRadius = 1,
			Sharpness = 25,
			SplitToningBalance = 0,
			SplitToningHighlightHue = 0,
			SplitToningHighlightSaturation = 0,
			SplitToningShadowHue = 0,
			SplitToningShadowSaturation = 0,
			ToneCurveName2012 = "Kodak Ektachrome 64 - -",
			ToneCurvePV2012 = {
				0,
				0,
				17,
				23,
				70,
				77,
				126,
				129,
				190,
				189,
				255,
				255,
			},
			ToneCurvePV2012Blue = {
				0,
				0,
				67,
				60,
				127,
				127,
				187,
				192,
				255,
				255,
			},
			ToneCurvePV2012Green = {
				0,
				0,
				67,
				57,
				124,
				126,
				188,
				191,
				220,
				222,
				255,
				255,
			},
			ToneCurvePV2012Red = {
				0,
				0,
				67,
				57,
				127,
				127,
				186,
				192,
				255,
				255,
			},
			Vibrance = 0,
			Whites2012 = -25,
		},
		uuid = "AA4B5438-BF46-4DE5-8FC1-244455BFC7BE",
	},
	version = 0,
}
