data/VSCO_SONY/VSCO Film 01 - Sony/~SO - Kodak Portra 160 ++.lrtemplate
s = {
	id = "AC434151-44C7-4E7B-AE2B-2428C81148BF",
	internalName = "SO - Kodak Portra 160 ++",
	title = "SO - Kodak Portra 160 ++",
	type = "Develop",
	value = {
		settings = {
			Blacks2012 = 25,
			BlueHue = 0,
			BlueSaturation = 0,
			CameraProfile = "Kodak Portra 160 SO",
			Clarity2012 = 0,
			Contrast2012 = 0,
			ConvertToGrayscale = false,
			EnableCalibration = true,
			EnableColorAdjustments = true,
			EnableDetail = true,
			EnableEffects = true,
			EnableSplitToning = true,
			GrainAmount = 30,
			GrainFrequency = 35,
			GrainSize = 35,
			GreenHue = 0,
			GreenSaturation = 0,
			Highlights2012 = -10,
			HueAdjustmentAqua = -20,
			HueAdjustmentBlue = -8,
			HueAdjustmentGreen = 0,
			HueAdjustmentMagenta = 15,
			HueAdjustmentOrange = 2,
			HueAdjustmentPurple = -10,
			HueAdjustmentRed = 8,
			HueAdjustmentYellow = 15,
			LuminanceAdjustmentAqua = 10,
			LuminanceAdjustmentBlue = 15,
			LuminanceAdjustmentGreen = -15,
			LuminanceAdjustmentMagenta = 15,
			LuminanceAdjustmentOrange = -6,
			LuminanceAdjustmentPurple = 15,
			LuminanceAdjustmentRed = 0,
			LuminanceAdjustmentYellow = -15,
			ParametricDarks = 0,
			ParametricHighlightSplit = 65,
			ParametricHighlights = 0,
			ParametricLights = 0,
			ParametricMidtoneSplit = 36,
			ParametricShadowSplit = 21,
			ParametricShadows = 0,
			ProcessVersion = "6.7",
			RedHue = -5,
			RedSaturation = -5,
			Saturation = 5,
			SaturationAdjustmentAqua = -25,
			SaturationAdjustmentBlue = -15,
			SaturationAdjustmentGreen = -30,
			SaturationAdjustmentMagenta = -25,
			SaturationAdjustmentOrange = 5,
			SaturationAdjustmentPurple = -30,
			SaturationAdjustmentRed = -15,
			SaturationAdjustmentYellow = -20,
			ShadowTint = 0,
			Shadows2012 = 10,
			SharpenDetail = 25,
			SharpenEdgeMasking = 0,
			SharpenRadius = 1,
			Sharpness = 25,
			SplitToningBalance = -90,
			SplitToningHighlightHue = 30,
			SplitToningHighlightSaturation = 6,
			SplitToningShadowHue = 0,
			SplitToningShadowSaturation = 0,
			ToneCurveName2012 = "Custom",
			ToneCurvePV2012 = {
				0,
				19,
				50,
				56,
				119,
				122,
				254,
				249,
			},
			ToneCurvePV2012Blue = {
				0,
				0,
				26,
				13,
				110,
				117,
				170,
				179,
				220,
				224,
				255,
				255,
			},
			ToneCurvePV2012Green = {
				0,
				9,
				24,
				21,
				107,
				117,
				169,
				182,
				227,
				230,
				255,
				255,
			},
			ToneCurvePV2012Red = {
				0,
				8,
				24,
				22,
				108,
				123,
				170,
				182,
				255,
				255,
			},
			Vibrance = 0,
			Whites2012 = -15,
		},
		uuid = "A3662140-AC91-4D52-A64C-68DB913E0EC9",
	},
	version = 0,
}
