data/VSCO_SONY/VSCO Film 01 - Sony/~SO - Fuji 400H ++.lrtemplate
s = {
	id = "BCA39782-D058-42D1-AC00-6674C3C71FE2",
	internalName = "SO - Fuji 400H ++",
	title = "SO - Fuji 400H ++",
	type = "Develop",
	value = {
		settings = {
			Blacks2012 = 25,
			BlueHue = -6,
			BlueSaturation = -10,
			CameraProfile = "Fuji 400H SO",
			Clarity2012 = 0,
			Contrast2012 = 0,
			ConvertToGrayscale = false,
			EnableCalibration = true,
			EnableColorAdjustments = true,
			EnableDetail = true,
			EnableEffects = true,
			EnableSplitToning = true,
			GrainAmount = 25,
			GrainFrequency = 35,
			GrainSize = 30,
			GreenHue = 10,
			GreenSaturation = 0,
			Highlights2012 = -10,
			HueAdjustmentAqua = -12,
			HueAdjustmentBlue = -10,
			HueAdjustmentGreen = 20,
			HueAdjustmentMagenta = 20,
			HueAdjustmentOrange = 3,
			HueAdjustmentPurple = 15,
			HueAdjustmentRed = 6,
			HueAdjustmentYellow = 5,
			LuminanceAdjustmentAqua = 10,
			LuminanceAdjustmentBlue = -10,
			LuminanceAdjustmentGreen = -10,
			LuminanceAdjustmentMagenta = 0,
			LuminanceAdjustmentOrange = 4,
			LuminanceAdjustmentPurple = 5,
			LuminanceAdjustmentRed = 10,
			LuminanceAdjustmentYellow = -10,
			ParametricDarks = 0,
			ParametricHighlightSplit = 87,
			ParametricHighlights = 0,
			ParametricLights = 0,
			ParametricMidtoneSplit = 40,
			ParametricShadowSplit = 20,
			ParametricShadows = 0,
			ProcessVersion = "6.7",
			RedHue = 0,
			RedSaturation = 10,
			Saturation = 5,
			SaturationAdjustmentAqua = -10,
			SaturationAdjustmentBlue = -20,
			SaturationAdjustmentGreen = -40,
			SaturationAdjustmentMagenta = -30,
			SaturationAdjustmentOrange = -2,
			SaturationAdjustmentPurple = -30,
			SaturationAdjustmentRed = -20,
			SaturationAdjustmentYellow = -10,
			ShadowTint = -4,
			Shadows2012 = 10,
			SharpenDetail = 25,
			SharpenEdgeMasking = 0,
			SharpenRadius = 1,
			Sharpness = 25,
			SplitToningBalance = 90,
			SplitToningHighlightHue = 55,
			SplitToningHighlightSaturation = 3,
			SplitToningShadowHue = 55,
			SplitToningShadowSaturation = 10,
			ToneCurveName2012 = "Custom",
			ToneCurvePV2012 = {
				0,
				23,
				65,
				72,
				173,
				174,
				255,
				255,
			},
			ToneCurvePV2012Blue = {
				0,
				0,
				50,
				36,
				118,
				129,
				190,
				198,
				255,
				250,
			},
			ToneCurvePV2012Green = {
				0,
				6,
				44,
				36,
				116,
				129,
				144,
				158,
				188,
				196,
				255,
				252,
			},
			ToneCurvePV2012Red = {
				1,
				9,
				49,
				35,
				114,
				127,
				188,
				199,
				255,
				255,
			},
			Vibrance = 0,
			Whites2012 = -10,
		},
		uuid = "AE700E49-5D79-4867-984F-F446BB62970C",
	},
	version = 0,
}
