data/VSCO_SONY/VSCO Film 01 - Sony/~SO - Fuji 160C.lrtemplate
s = {
	id = "40D9106C-5015-45C8-98FC-300D45623084",
	internalName = "SO - Fuji 160C",
	title = "SO - Fuji 160C",
	type = "Develop",
	value = {
		settings = {
			Blacks2012 = 30,
			BlueHue = 0,
			BlueSaturation = 0,
			CameraProfile = "Fuji 160C SO",
			Clarity2012 = 0,
			Contrast2012 = 0,
			ConvertToGrayscale = false,
			EnableCalibration = true,
			EnableColorAdjustments = true,
			EnableDetail = true,
			EnableEffects = true,
			EnableSplitToning = true,
			GrainAmount = 15,
			GrainFrequency = 30,
			GrainSize = 30,
			GreenHue = 10,
			GreenSaturation = 0,
			Highlights2012 = -10,
			HueAdjustmentAqua = 6,
			HueAdjustmentBlue = 0,
			HueAdjustmentGreen = 10,
			HueAdjustmentMagenta = 25,
			HueAdjustmentOrange = -2,
			HueAdjustmentPurple = 15,
			HueAdjustmentRed = -5,
			HueAdjustmentYellow = 5,
			LuminanceAdjustmentAqua = -5,
			LuminanceAdjustmentBlue = -10,
			LuminanceAdjustmentGreen = 12,
			LuminanceAdjustmentMagenta = -10,
			LuminanceAdjustmentOrange = 5,
			LuminanceAdjustmentPurple = -20,
			LuminanceAdjustmentRed = 0,
			LuminanceAdjustmentYellow = -10,
			ParametricDarks = 0,
			ParametricHighlightSplit = 75,
			ParametricHighlights = 0,
			ParametricLights = 0,
			ParametricMidtoneSplit = 50,
			ParametricShadowSplit = 25,
			ParametricShadows = 0,
			ProcessVersion = "6.7",
			RedHue = 0,
			RedSaturation = 0,
			Saturation = 5,
			SaturationAdjustmentAqua = -5,
			SaturationAdjustmentBlue = -10,
			SaturationAdjustmentGreen = -25,
			SaturationAdjustmentMagenta = -10,
			SaturationAdjustmentOrange = -5,
			SaturationAdjustmentPurple = -30,
			SaturationAdjustmentRed = -10,
			SaturationAdjustmentYellow = -15,
			ShadowTint = 0,
			Shadows2012 = 10,
			SharpenDetail = 25,
			SharpenEdgeMasking = 0,
			SharpenRadius = 1,
			Sharpness = 25,
			SplitToningBalance = 0,
			SplitToningHighlightHue = 250,
			SplitToningHighlightSaturation = 5,
			SplitToningShadowHue = 65,
			SplitToningShadowSaturation = 5,
			ToneCurveName2012 = "Custom",
			ToneCurvePV2012 = {
				0,
				5,
				255,
				249,
			},
			ToneCurvePV2012Blue = {
				0,
				0,
				42,
				23,
				118,
				124,
				194,
				199,
				255,
				255,
			},
			ToneCurvePV2012Green = {
				0,
				0,
				39,
				22,
				116,
				122,
				193,
				202,
				255,
				255,
			},
			ToneCurvePV2012Red = {
				0,
				0,
				41,
				21,
				115,
				119,
				193,
				201,
				255,
				255,
			},
			Vibrance = 0,
			Whites2012 = -15,
		},
		uuid = "8DF533AE-BC2F-4761-856A-CF9C83090F9A",
	},
	version = 0,
}
