data/VSCO_SONY/VSCO Film 01 - Sony/~SO - Kodak Portra 400 +.lrtemplate
s = {
	id = "B3C4DA9C-8623-4F68-995D-02C33F5413D0",
	internalName = "SO - Kodak Portra 400 +",
	title = "SO - Kodak Portra 400 +",
	type = "Develop",
	value = {
		settings = {
			Blacks2012 = 30,
			BlueHue = -5,
			BlueSaturation = 0,
			CameraProfile = "Kodak Portra 400 SO",
			Clarity2012 = 0,
			Contrast2012 = 0,
			ConvertToGrayscale = false,
			EnableCalibration = true,
			EnableColorAdjustments = true,
			EnableDetail = true,
			EnableEffects = true,
			EnableSplitToning = true,
			GrainAmount = 30,
			GrainFrequency = 40,
			GrainSize = 30,
			GreenHue = 0,
			GreenSaturation = 0,
			Highlights2012 = -10,
			HueAdjustmentAqua = 5,
			HueAdjustmentBlue = -5,
			HueAdjustmentGreen = 20,
			HueAdjustmentMagenta = 0,
			HueAdjustmentOrange = 0,
			HueAdjustmentPurple = 20,
			HueAdjustmentRed = 10,
			HueAdjustmentYellow = 5,
			LuminanceAdjustmentAqua = 15,
			LuminanceAdjustmentBlue = -10,
			LuminanceAdjustmentGreen = -20,
			LuminanceAdjustmentMagenta = 10,
			LuminanceAdjustmentOrange = 0,
			LuminanceAdjustmentPurple = 30,
			LuminanceAdjustmentRed = -5,
			LuminanceAdjustmentYellow = -15,
			ParametricDarks = 0,
			ParametricHighlightSplit = 75,
			ParametricHighlights = 0,
			ParametricLights = 0,
			ParametricMidtoneSplit = 35,
			ParametricShadowSplit = 15,
			ParametricShadows = 0,
			ProcessVersion = "6.7",
			RedHue = 5,
			RedSaturation = -5,
			Saturation = 0,
			SaturationAdjustmentAqua = -40,
			SaturationAdjustmentBlue = -25,
			SaturationAdjustmentGreen = -40,
			SaturationAdjustmentMagenta = -35,
			SaturationAdjustmentOrange = -5,
			SaturationAdjustmentPurple = -50,
			SaturationAdjustmentRed = -15,
			SaturationAdjustmentYellow = -20,
			ShadowTint = -4,
			Shadows2012 = 15,
			SharpenDetail = 25,
			SharpenEdgeMasking = 0,
			SharpenRadius = 1,
			Sharpness = 25,
			SplitToningBalance = 0,
			SplitToningHighlightHue = 0,
			SplitToningHighlightSaturation = 0,
			SplitToningShadowHue = 0,
			SplitToningShadowSaturation = 0,
			ToneCurveName2012 = "Custom",
			ToneCurvePV2012 = {
				0,
				16,
				50,
				57,
				124,
				127,
				255,
				251,
			},
			ToneCurvePV2012Blue = {
				0,
				0,
				31,
				13,
				117,
				131,
				180,
				193,
				255,
				255,
			},
			ToneCurvePV2012Green = {
				0,
				2,
				29,
				17,
				117,
				132,
				181,
				196,
				255,
				255,
			},
			ToneCurvePV2012Red = {
				0,
				0,
				29,
				15,
				116,
				131,
				178,
				196,
				255,
				255,
			},
			Vibrance = 0,
			Whites2012 = -15,
		},
		uuid = "3AE5297B-AD89-49EF-9FAA-0B9423BEC5A6",
	},
	version = 0,
}
