data/VSCO_SONY/VSCO Film 03 Consumer - Sony/SO - PX-70 Cold - -.lrtemplate
s = {
	id = "AD42E524-66DD-4928-9BD2-04C51C43B8A1",
	internalName = "PX-70 Start Cold - -",
	title = "SO - PX-70 Cold - -",
	type = "Develop",
	value = {
		settings = {
			Blacks2012 = 5,
			BlueHue = -10,
			BlueSaturation = -15,
			CameraProfile = "PX-70 SO",
			Clarity2012 = 0,
			Contrast2012 = 0,
			ConvertToGrayscale = false,
			EnableCalibration = true,
			EnableColorAdjustments = true,
			EnableDetail = true,
			EnableEffects = true,
			EnableSplitToning = true,
			GrainAmount = 15,
			GrainFrequency = 35,
			GrainSize = 40,
			GreenHue = 0,
			GreenSaturation = 0,
			Highlights2012 = -20,
			HueAdjustmentAqua = 0,
			HueAdjustmentBlue = -15,
			HueAdjustmentGreen = 20,
			HueAdjustmentMagenta = 25,
			HueAdjustmentOrange = 0,
			HueAdjustmentPurple = 25,
			HueAdjustmentRed = 30,
			HueAdjustmentYellow = 0,
			LuminanceAdjustmentAqua = -5,
			LuminanceAdjustmentBlue = -15,
			LuminanceAdjustmentGreen = 0,
			LuminanceAdjustmentMagenta = 10,
			LuminanceAdjustmentOrange = -5,
			LuminanceAdjustmentPurple = 30,
			LuminanceAdjustmentRed = 16,
			LuminanceAdjustmentYellow = 0,
			ParametricDarks = 0,
			ParametricHighlightSplit = 75,
			ParametricHighlights = 0,
			ParametricLights = 0,
			ParametricMidtoneSplit = 60,
			ParametricShadowSplit = 14,
			ParametricShadows = 0,
			ProcessVersion = "6.7",
			RedHue = 20,
			RedSaturation = -5,
			Saturation = 5,
			SaturationAdjustmentAqua = -25,
			SaturationAdjustmentBlue = -25,
			SaturationAdjustmentGreen = -40,
			SaturationAdjustmentMagenta = -40,
			SaturationAdjustmentOrange = -12,
			SaturationAdjustmentPurple = -80,
			SaturationAdjustmentRed = -30,
			SaturationAdjustmentYellow = -20,
			ShadowTint = 0,
			Shadows2012 = 0,
			SharpenDetail = 25,
			SharpenEdgeMasking = 0,
			SharpenRadius = 1,
			Sharpness = 25,
			SplitToningBalance = 0,
			SplitToningHighlightHue = 0,
			SplitToningHighlightSaturation = 0,
			SplitToningShadowHue = 0,
			SplitToningShadowSaturation = 0,
			ToneCurveName2012 = "Custom",
			ToneCurvePV2012 = {
				0,
				0,
				18,
				23,
				56,
				67,
				120,
				129,
				199,
				202,
				255,
				255,
			},
			ToneCurvePV2012Blue = {
				0,
				0,
				41,
				40,
				117,
				120,
				187,
				172,
				255,
				244,
			},
			ToneCurvePV2012Green = {
				0,
				0,
				45,
				37,
				98,
				120,
				175,
				199,
				228,
				233,
				255,
				255,
			},
			ToneCurvePV2012Red = {
				0,
				0,
				46,
				27,
				100,
				118,
				179,
				204,
				255,
				255,
			},
			Vibrance = 0,
			Whites2012 = -25,
		},
		uuid = "24A33722-806E-437F-A881-C5F37327382F",
	},
	version = 0,
}
