data/VSCO_SONY/VSCO Film 03 Consumer - Sony/SO - PX-70 Warm ++.lrtemplate
s = {
	id = "3E5A6046-2BB2-45F9-9610-DA4EF78B0687",
	internalName = "PX-70 Start Warm ++",
	title = "SO - PX-70 Warm ++",
	type = "Develop",
	value = {
		settings = {
			Blacks2012 = -45,
			BlueHue = -10,
			BlueSaturation = -15,
			CameraProfile = "PX-70 SO",
			Clarity2012 = -20,
			Contrast2012 = 0,
			ConvertToGrayscale = false,
			EnableCalibration = true,
			EnableColorAdjustments = true,
			EnableDetail = true,
			EnableEffects = true,
			EnableSplitToning = true,
			GrainAmount = 15,
			GrainFrequency = 35,
			GrainSize = 40,
			GreenHue = 0,
			GreenSaturation = 0,
			Highlights2012 = -20,
			HueAdjustmentAqua = 0,
			HueAdjustmentBlue = -15,
			HueAdjustmentGreen = 20,
			HueAdjustmentMagenta = 25,
			HueAdjustmentOrange = 0,
			HueAdjustmentPurple = 25,
			HueAdjustmentRed = 30,
			HueAdjustmentYellow = 0,
			LuminanceAdjustmentAqua = -5,
			LuminanceAdjustmentBlue = -15,
			LuminanceAdjustmentGreen = 0,
			LuminanceAdjustmentMagenta = 10,
			LuminanceAdjustmentOrange = -5,
			LuminanceAdjustmentPurple = 30,
			LuminanceAdjustmentRed = 16,
			LuminanceAdjustmentYellow = 0,
			ParametricDarks = 0,
			ParametricHighlightSplit = 75,
			ParametricHighlights = 0,
			ParametricLights = 0,
			ParametricMidtoneSplit = 60,
			ParametricShadowSplit = 14,
			ParametricShadows = 0,
			ProcessVersion = "6.7",
			RedHue = 35,
			RedSaturation = -5,
			Saturation = -30,
			SaturationAdjustmentAqua = -25,
			SaturationAdjustmentBlue = -25,
			SaturationAdjustmentGreen = -40,
			SaturationAdjustmentMagenta = -40,
			SaturationAdjustmentOrange = -12,
			SaturationAdjustmentPurple = -80,
			SaturationAdjustmentRed = -30,
			SaturationAdjustmentYellow = -20,
			ShadowTint = 0,
			Shadows2012 = 0,
			SharpenDetail = 25,
			SharpenEdgeMasking = 0,
			SharpenRadius = 1,
			Sharpness = 0,
			SplitToningBalance = 0,
			SplitToningHighlightHue = 0,
			SplitToningHighlightSaturation = 0,
			SplitToningShadowHue = 0,
			SplitToningShadowSaturation = 0,
			ToneCurveName2012 = "Custom",
			ToneCurvePV2012 = {
				0,
				76,
				47,
				81,
				89,
				104,
				119,
				135,
				196,
				209,
				255,
				237,
			},
			ToneCurvePV2012Blue = {
				0,
				4,
				52,
				19,
				118,
				108,
				193,
				154,
				233,
				179,
				255,
				203,
			},
			ToneCurvePV2012Green = {
				0,
				19,
				54,
				39,
				102,
				119,
				173,
				199,
				227,
				234,
				255,
				255,
			},
			ToneCurvePV2012Red = {
				0,
				29,
				45,
				45,
				95,
				122,
				178,
				209,
				255,
				246,
			},
			Vibrance = 0,
			Whites2012 = -25,
		},
		uuid = "A9A228CE-B534-4BBB-BB4C-16CEC76FC2AD",
	},
	version = 0,
}
