data/VSCO_SONY/VSCO Film 03 Consumer - Sony/SO - PX-70 ++.lrtemplate
s = {
	id = "F90E0F1A-58A6-4948-B920-2404FCA30DED",
	internalName = "PX-70 Start ++",
	title = "SO - PX-70 ++",
	type = "Develop",
	value = {
		settings = {
			Blacks2012 = -45,
			BlueHue = -10,
			BlueSaturation = -15,
			CameraProfile = "PX-70 SO",
			Clarity2012 = -20,
			Contrast2012 = 0,
			ConvertToGrayscale = false,
			EnableCalibration = true,
			EnableColorAdjustments = true,
			EnableDetail = true,
			EnableEffects = true,
			EnableSplitToning = true,
			GrainAmount = 15,
			GrainFrequency = 35,
			GrainSize = 40,
			GreenHue = 0,
			GreenSaturation = 0,
			Highlights2012 = -20,
			HueAdjustmentAqua = 0,
			HueAdjustmentBlue = -15,
			HueAdjustmentGreen = 20,
			HueAdjustmentMagenta = 25,
			HueAdjustmentOrange = 0,
			HueAdjustmentPurple = 25,
			HueAdjustmentRed = 30,
			HueAdjustmentYellow = 0,
			LuminanceAdjustmentAqua = -5,
			LuminanceAdjustmentBlue = -15,
			LuminanceAdjustmentGreen = 0,
			LuminanceAdjustmentMagenta = 10,
			LuminanceAdjustmentOrange = -5,
			LuminanceAdjustmentPurple = 30,
			LuminanceAdjustmentRed = 16,
			LuminanceAdjustmentYellow = 0,
			ParametricDarks = 0,
			ParametricHighlightSplit = 75,
			ParametricHighlights = 0,
			ParametricLights = 0,
			ParametricMidtoneSplit = 60,
			ParametricShadowSplit = 14,
			ParametricShadows = 0,
			ProcessVersion = "6.7",
			RedHue = 35,
			RedSaturation = -5,
			Saturation = -30,
			SaturationAdjustmentAqua = -25,
			SaturationAdjustmentBlue = -25,
			SaturationAdjustmentGreen = -40,
			SaturationAdjustmentMagenta = -40,
			SaturationAdjustmentOrange = -12,
			SaturationAdjustmentPurple = -80,
			SaturationAdjustmentRed = -30,
			SaturationAdjustmentYellow = -20,
			ShadowTint = 0,
			Shadows2012 = 0,
			SharpenDetail = 25,
			SharpenEdgeMasking = 0,
			SharpenRadius = 1,
			Sharpness = 0,
			SplitToningBalance = 0,
			SplitToningHighlightHue = 0,
			SplitToningHighlightSaturation = 0,
			SplitToningShadowHue = 0,
			SplitToningShadowSaturation = 0,
			ToneCurveName2012 = "Custom",
			ToneCurvePV2012 = {
				0,
				73,
				20,
				74,
				58,
				83,
				118,
				135,
				206,
				191,
				255,
				202,
			},
			ToneCurvePV2012Blue = {
				0,
				38,
				36,
				44,
				122,
				112,
				191,
				152,
				255,
				175,
			},
			ToneCurvePV2012Green = {
				0,
				21,
				44,
				37,
				97,
				120,
				172,
				203,
				226,
				237,
				255,
				255,
			},
			ToneCurvePV2012Red = {
				0,
				0,
				50,
				23,
				99,
				122,
				179,
				206,
				255,
				246,
			},
			Vibrance = 0,
			Whites2012 = -25,
		},
		uuid = "6EE8290B-139D-4ADA-8417-DB9207F95125",
	},
	version = 0,
}
