data/VSCO_CANON/VSCO Film 04 - Canon/C - Fuji Velvia 50 Landscape +.lrtemplate
s = {
	id = "18D82BCE-76D7-4061-A90C-2C2B10FBF220",
	internalName = "Fuji Velvia 50 Landscape Drama +",
	title = "C - Fuji Velvia 50 Landscape +",
	type = "Develop",
	value = {
		settings = {
			Blacks2012 = 25,
			BlueHue = -10,
			BlueSaturation = 30,
			CameraProfile = "Fuji Velvia 50 - C",
			Clarity2012 = 0,
			Contrast2012 = 0,
			ConvertToGrayscale = false,
			EnableCalibration = true,
			EnableColorAdjustments = true,
			EnableDetail = true,
			EnableEffects = true,
			EnableSplitToning = true,
			GrainAmount = 15,
			GrainFrequency = 35,
			GrainSize = 35,
			GreenHue = 10,
			GreenSaturation = -10,
			Highlights2012 = -35,
			HueAdjustmentAqua = 10,
			HueAdjustmentBlue = 20,
			HueAdjustmentGreen = 20,
			HueAdjustmentMagenta = 15,
			HueAdjustmentOrange = -20,
			HueAdjustmentPurple = 30,
			HueAdjustmentRed = 12,
			HueAdjustmentYellow = -20,
			LuminanceAdjustmentAqua = -20,
			LuminanceAdjustmentBlue = -30,
			LuminanceAdjustmentGreen = -25,
			LuminanceAdjustmentMagenta = -15,
			LuminanceAdjustmentOrange = -15,
			LuminanceAdjustmentPurple = -5,
			LuminanceAdjustmentRed = -20,
			LuminanceAdjustmentYellow = 0,
			ParametricDarks = 0,
			ParametricHighlightSplit = 75,
			ParametricHighlights = 0,
			ParametricLights = 0,
			ParametricMidtoneSplit = 60,
			ParametricShadowSplit = 14,
			ParametricShadows = 0,
			ProcessVersion = "6.7",
			RedHue = 10,
			RedSaturation = 30,
			Saturation = 5,
			SaturationAdjustmentAqua = 0,
			SaturationAdjustmentBlue = 0,
			SaturationAdjustmentGreen = -10,
			SaturationAdjustmentMagenta = -15,
			SaturationAdjustmentOrange = 0,
			SaturationAdjustmentPurple = 0,
			SaturationAdjustmentRed = -10,
			SaturationAdjustmentYellow = 0,
			ShadowTint = 0,
			Shadows2012 = 15,
			SharpenDetail = 25,
			SharpenEdgeMasking = 0,
			SharpenRadius = 1.2,
			Sharpness = 50,
			SplitToningBalance = 0,
			SplitToningHighlightHue = 275,
			SplitToningHighlightSaturation = 0,
			SplitToningShadowHue = 0,
			SplitToningShadowSaturation = 0,
			ToneCurveName2012 = "Custom",
			ToneCurvePV2012 = {
				0,
				0,
				255,
				255,
			},
			ToneCurvePV2012Blue = {
				0,
				0,
				39,
				5,
				62,
				22,
				114,
				123,
				178,
				208,
				255,
				255,
			},
			ToneCurvePV2012Green = {
				0,
				0,
				39,
				5,
				63,
				22,
				113,
				123,
				175,
				205,
				255,
				255,
			},
			ToneCurvePV2012Red = {
				0,
				0,
				39,
				5,
				61,
				22,
				110,
				123,
				175,
				207,
				255,
				255,
			},
			Vibrance = 0,
			Whites2012 = 0,
		},
		uuid = "AC54C82F-8C63-464D-935B-6D9B84D62364",
	},
	version = 0,
}
