data/VSCO_CANON/VSCO Film 04 - Canon/C - Fuji Velvia 100 - -.lrtemplate
s = {
	id = "15153A10-E831-40B3-A9A3-2E6782E710F8",
	internalName = "Fuji Velvia 100 - -",
	title = "C - Fuji Velvia 100 - -",
	type = "Develop",
	value = {
		settings = {
			Blacks2012 = 25,
			BlueHue = -5,
			BlueSaturation = 25,
			CameraProfile = "Fuji Velvia 100 - C",
			Clarity2012 = 0,
			Contrast2012 = 0,
			ConvertToGrayscale = false,
			EnableCalibration = true,
			EnableColorAdjustments = true,
			EnableDetail = true,
			EnableEffects = true,
			EnableSplitToning = true,
			GrainAmount = 0,
			GrainFrequency = 30,
			GrainSize = 30,
			GreenHue = 10,
			GreenSaturation = -10,
			Highlights2012 = -25,
			HueAdjustmentAqua = 10,
			HueAdjustmentBlue = 10,
			HueAdjustmentGreen = 10,
			HueAdjustmentMagenta = 12,
			HueAdjustmentOrange = 0,
			HueAdjustmentPurple = 10,
			HueAdjustmentRed = 12,
			HueAdjustmentYellow = 5,
			LuminanceAdjustmentAqua = -12,
			LuminanceAdjustmentBlue = -15,
			LuminanceAdjustmentGreen = -15,
			LuminanceAdjustmentMagenta = -12,
			LuminanceAdjustmentOrange = -5,
			LuminanceAdjustmentPurple = -10,
			LuminanceAdjustmentRed = -15,
			LuminanceAdjustmentYellow = 0,
			ParametricDarks = 0,
			ParametricHighlightSplit = 75,
			ParametricHighlights = 0,
			ParametricLights = 0,
			ParametricMidtoneSplit = 60,
			ParametricShadowSplit = 14,
			ParametricShadows = 0,
			ProcessVersion = "6.7",
			RedHue = 10,
			RedSaturation = 10,
			Saturation = 5,
			SaturationAdjustmentAqua = 0,
			SaturationAdjustmentBlue = 0,
			SaturationAdjustmentGreen = -10,
			SaturationAdjustmentMagenta = -15,
			SaturationAdjustmentOrange = -5,
			SaturationAdjustmentPurple = -10,
			SaturationAdjustmentRed = -10,
			SaturationAdjustmentYellow = 0,
			ShadowTint = 0,
			Shadows2012 = 20,
			SharpenDetail = 25,
			SharpenEdgeMasking = 0,
			SharpenRadius = 1.2,
			Sharpness = 40,
			SplitToningBalance = 0,
			SplitToningHighlightHue = 275,
			SplitToningHighlightSaturation = 0,
			SplitToningShadowHue = 0,
			SplitToningShadowSaturation = 0,
			ToneCurveName2012 = "Custom",
			ToneCurvePV2012 = {
				0,
				0,
				31,
				38,
				123,
				123,
				173,
				173,
				255,
				255,
			},
			ToneCurvePV2012Blue = {
				0,
				0,
				48,
				23,
				111,
				123,
				172,
				207,
				255,
				255,
			},
			ToneCurvePV2012Green = {
				0,
				0,
				49,
				22,
				113,
				122,
				174,
				200,
				255,
				255,
			},
			ToneCurvePV2012Red = {
				0,
				0,
				45,
				21,
				114,
				122,
				178,
				203,
				255,
				255,
			},
			Vibrance = 0,
			Whites2012 = 0,
		},
		uuid = "FFAF2D78-98AE-4B48-96B1-6A83CC10F5C4",
	},
	version = 0,
}
