data/VSCO_CANON/VSCO Film 04 - Canon/~C - Kodak E200 HC.lrtemplate
s = {
	id = "7C1BE27C-A711-40AD-8BE7-BE405211D844",
	internalName = "Kodak E200 HC",
	title = "C - Kodak E200 HC",
	type = "Develop",
	value = {
		settings = {
			Blacks2012 = 25,
			BlueHue = -6,
			BlueSaturation = 20,
			CameraProfile = "Kodak E200 - C",
			Clarity2012 = 0,
			Contrast2012 = 0,
			ConvertToGrayscale = false,
			EnableCalibration = true,
			EnableColorAdjustments = true,
			EnableDetail = true,
			EnableEffects = true,
			EnableSplitToning = true,
			GrainAmount = 35,
			GrainFrequency = 45,
			GrainSize = 25,
			GreenHue = 15,
			GreenSaturation = -15,
			Highlights2012 = -20,
			HueAdjustmentAqua = 15,
			HueAdjustmentBlue = 5,
			HueAdjustmentGreen = 5,
			HueAdjustmentMagenta = 0,
			HueAdjustmentOrange = 0,
			HueAdjustmentPurple = 30,
			HueAdjustmentRed = 10,
			HueAdjustmentYellow = -8,
			LuminanceAdjustmentAqua = -10,
			LuminanceAdjustmentBlue = -25,
			LuminanceAdjustmentGreen = -10,
			LuminanceAdjustmentMagenta = -15,
			LuminanceAdjustmentOrange = -12,
			LuminanceAdjustmentPurple = 5,
			LuminanceAdjustmentRed = -30,
			LuminanceAdjustmentYellow = -20,
			ParametricDarks = 0,
			ParametricHighlightSplit = 75,
			ParametricHighlights = 0,
			ParametricLights = 0,
			ParametricMidtoneSplit = 60,
			ParametricShadowSplit = 14,
			ParametricShadows = 0,
			ProcessVersion = "6.7",
			RedHue = 20,
			RedSaturation = 0,
			Saturation = -5,
			SaturationAdjustmentAqua = -45,
			SaturationAdjustmentBlue = 10,
			SaturationAdjustmentGreen = -40,
			SaturationAdjustmentMagenta = -40,
			SaturationAdjustmentOrange = 8,
			SaturationAdjustmentPurple = -40,
			SaturationAdjustmentRed = -30,
			SaturationAdjustmentYellow = 0,
			ShadowTint = 0,
			Shadows2012 = 15,
			SharpenDetail = 25,
			SharpenEdgeMasking = 0,
			SharpenRadius = 1.2,
			Sharpness = 40,
			SplitToningBalance = 0,
			SplitToningHighlightHue = 0,
			SplitToningHighlightSaturation = 0,
			SplitToningShadowHue = 0,
			SplitToningShadowSaturation = 0,
			ToneCurveName2012 = "Custom",
			ToneCurvePV2012 = {
				0,
				0,
				255,
				255,
			},
			ToneCurvePV2012Blue = {
				0,
				0,
				47,
				18,
				116,
				124,
				178,
				202,
				255,
				255,
			},
			ToneCurvePV2012Green = {
				0,
				0,
				47,
				17,
				114,
				122,
				178,
				202,
				255,
				255,
			},
			ToneCurvePV2012Red = {
				0,
				0,
				47,
				18,
				115,
				123,
				178,
				202,
				255,
				255,
			},
			Vibrance = 0,
			Whites2012 = 0,
		},
		uuid = "784F7149-801D-4393-BB8E-77368F099EC0",
	},
	version = 0,
}
