data/VSCO_CANON/VSCO Film 04 - Canon/~C - Kodak E100G HC.lrtemplate
s = {
	id = "D5F09482-99B8-487E-AD0C-290617A40CA4",
	internalName = "Kodak E100G HC",
	title = "C - Kodak E100G HC",
	type = "Develop",
	value = {
		settings = {
			Blacks2012 = 30,
			BlueHue = 5,
			BlueSaturation = 20,
			CameraProfile = "Kodak E100G - C",
			Clarity2012 = 0,
			Contrast2012 = 0,
			ConvertToGrayscale = false,
			EnableCalibration = true,
			EnableColorAdjustments = true,
			EnableDetail = true,
			EnableEffects = true,
			EnableSplitToning = true,
			GrainAmount = 20,
			GrainFrequency = 45,
			GrainSize = 25,
			GreenHue = 30,
			GreenSaturation = -20,
			Highlights2012 = -20,
			HueAdjustmentAqua = 0,
			HueAdjustmentBlue = 5,
			HueAdjustmentGreen = 5,
			HueAdjustmentMagenta = 0,
			HueAdjustmentOrange = 4,
			HueAdjustmentPurple = 0,
			HueAdjustmentRed = 12,
			HueAdjustmentYellow = -5,
			LuminanceAdjustmentAqua = 0,
			LuminanceAdjustmentBlue = -25,
			LuminanceAdjustmentGreen = -10,
			LuminanceAdjustmentMagenta = -15,
			LuminanceAdjustmentOrange = -10,
			LuminanceAdjustmentPurple = 0,
			LuminanceAdjustmentRed = -30,
			LuminanceAdjustmentYellow = -15,
			ParametricDarks = 0,
			ParametricHighlightSplit = 75,
			ParametricHighlights = 0,
			ParametricLights = 0,
			ParametricMidtoneSplit = 60,
			ParametricShadowSplit = 14,
			ParametricShadows = 0,
			ProcessVersion = "6.7",
			RedHue = 5,
			RedSaturation = -5,
			Saturation = 0,
			SaturationAdjustmentAqua = -25,
			SaturationAdjustmentBlue = 10,
			SaturationAdjustmentGreen = -50,
			SaturationAdjustmentMagenta = -30,
			SaturationAdjustmentOrange = 5,
			SaturationAdjustmentPurple = -30,
			SaturationAdjustmentRed = -30,
			SaturationAdjustmentYellow = 0,
			ShadowTint = 0,
			Shadows2012 = 25,
			SharpenDetail = 25,
			SharpenEdgeMasking = 0,
			SharpenRadius = 1.2,
			Sharpness = 40,
			SplitToningBalance = 0,
			SplitToningHighlightHue = 0,
			SplitToningHighlightSaturation = 0,
			SplitToningShadowHue = 0,
			SplitToningShadowSaturation = 0,
			ToneCurveName2012 = "Custom",
			ToneCurvePV2012 = {
				0,
				0,
				255,
				255,
			},
			ToneCurvePV2012Blue = {
				0,
				0,
				39,
				5,
				62,
				22,
				115,
				123,
				148,
				171,
				190,
				212,
				255,
				255,
			},
			ToneCurvePV2012Green = {
				0,
				0,
				39,
				5,
				62,
				22,
				113,
				123,
				146,
				172,
				188,
				214,
				255,
				255,
			},
			ToneCurvePV2012Red = {
				0,
				0,
				39,
				5,
				64,
				22,
				113,
				123,
				144,
				168,
				186,
				210,
				255,
				255,
			},
			Vibrance = 0,
			Whites2012 = -10,
		},
		uuid = "EE355C0C-CA3F-4939-9730-5D2E7227D0CB",
	},
	version = 0,
}
