data/VSCO_CANON/VSCO Film 04 - Canon/~C - Fuji Velvia 100F Balance Warm.lrtemplate
s = {
	id = "ED9EB587-E4D1-4289-A594-B616DFA82AE4",
	internalName = "Fuji Velvia 100F Warm Balance",
	title = "C - Fuji Velvia 100F Balance Warm",
	type = "Develop",
	value = {
		settings = {
			Blacks2012 = 20,
			BlueHue = 5,
			BlueSaturation = 30,
			CameraProfile = "Fuji Velvia 100F - C",
			Clarity2012 = 0,
			Contrast2012 = 0,
			ConvertToGrayscale = false,
			EnableCalibration = true,
			EnableColorAdjustments = true,
			EnableDetail = true,
			EnableEffects = true,
			EnableSplitToning = true,
			GrainAmount = 15,
			GrainFrequency = 30,
			GrainSize = 30,
			GreenHue = 5,
			GreenSaturation = 5,
			Highlights2012 = -25,
			HueAdjustmentAqua = 0,
			HueAdjustmentBlue = 0,
			HueAdjustmentGreen = 0,
			HueAdjustmentMagenta = 15,
			HueAdjustmentOrange = 0,
			HueAdjustmentPurple = 14,
			HueAdjustmentRed = 10,
			HueAdjustmentYellow = -10,
			LuminanceAdjustmentAqua = -5,
			LuminanceAdjustmentBlue = -20,
			LuminanceAdjustmentGreen = -10,
			LuminanceAdjustmentMagenta = -25,
			LuminanceAdjustmentOrange = -10,
			LuminanceAdjustmentPurple = 0,
			LuminanceAdjustmentRed = -30,
			LuminanceAdjustmentYellow = -15,
			ParametricDarks = 0,
			ParametricHighlightSplit = 75,
			ParametricHighlights = 0,
			ParametricLights = 0,
			ParametricMidtoneSplit = 60,
			ParametricShadowSplit = 14,
			ParametricShadows = 0,
			ProcessVersion = "6.7",
			RedHue = 10,
			RedSaturation = 5,
			Saturation = 5,
			SaturationAdjustmentAqua = 0,
			SaturationAdjustmentBlue = 0,
			SaturationAdjustmentGreen = -10,
			SaturationAdjustmentMagenta = -30,
			SaturationAdjustmentOrange = 0,
			SaturationAdjustmentPurple = 0,
			SaturationAdjustmentRed = -5,
			SaturationAdjustmentYellow = 0,
			ShadowTint = 5,
			Shadows2012 = 15,
			SharpenDetail = 25,
			SharpenEdgeMasking = 0,
			SharpenRadius = 1.2,
			Sharpness = 40,
			SplitToningBalance = -80,
			SplitToningHighlightHue = 50,
			SplitToningHighlightSaturation = 10,
			SplitToningShadowHue = 0,
			SplitToningShadowSaturation = 0,
			ToneCurveName2012 = "Custom",
			ToneCurvePV2012 = {
				0,
				0,
				255,
				255,
			},
			ToneCurvePV2012Blue = {
				0,
				0,
				41,
				22,
				115,
				121,
				176,
				202,
				255,
				250,
			},
			ToneCurvePV2012Green = {
				0,
				0,
				41,
				21,
				113,
				122,
				177,
				201,
				255,
				255,
			},
			ToneCurvePV2012Red = {
				0,
				0,
				43,
				22,
				112,
				124,
				178,
				203,
				255,
				255,
			},
			Vibrance = 0,
			Whites2012 = 0,
		},
		uuid = "C66A8471-0D2B-4153-ADD7-E0EEDEAFDD38",
	},
	version = 0,
}
