data/VSCO_CANON/VSCO Film 04 - Canon/~C - Fuji Provia 100F ++.lrtemplate
s = {
	id = "02EEA7B3-BC27-4A04-B4D6-CD27973C441C",
	internalName = "Fuji Provia 100F + 2",
	title = "C - Fuji Provia 100F ++",
	type = "Develop",
	value = {
		settings = {
			Blacks2012 = 10,
			BlueHue = -10,
			BlueSaturation = 25,
			CameraProfile = "Fuji Provia 100F - C",
			Clarity2012 = 0,
			Contrast2012 = 0,
			ConvertToGrayscale = false,
			EnableCalibration = true,
			EnableColorAdjustments = true,
			EnableDetail = true,
			EnableEffects = true,
			EnableSplitToning = true,
			GrainAmount = 20,
			GrainFrequency = 30,
			GrainSize = 30,
			GreenHue = 10,
			GreenSaturation = -10,
			Highlights2012 = -25,
			HueAdjustmentAqua = 0,
			HueAdjustmentBlue = 5,
			HueAdjustmentGreen = 12,
			HueAdjustmentMagenta = 15,
			HueAdjustmentOrange = 0,
			HueAdjustmentPurple = 20,
			HueAdjustmentRed = 12,
			HueAdjustmentYellow = 0,
			LuminanceAdjustmentAqua = -15,
			LuminanceAdjustmentBlue = -25,
			LuminanceAdjustmentGreen = -25,
			LuminanceAdjustmentMagenta = -15,
			LuminanceAdjustmentOrange = -8,
			LuminanceAdjustmentPurple = -10,
			LuminanceAdjustmentRed = -20,
			LuminanceAdjustmentYellow = 0,
			ParametricDarks = 0,
			ParametricHighlightSplit = 75,
			ParametricHighlights = 0,
			ParametricLights = 0,
			ParametricMidtoneSplit = 60,
			ParametricShadowSplit = 14,
			ParametricShadows = 0,
			ProcessVersion = "6.7",
			RedHue = 10,
			RedSaturation = 5,
			Saturation = 4,
			SaturationAdjustmentAqua = 0,
			SaturationAdjustmentBlue = 10,
			SaturationAdjustmentGreen = -30,
			SaturationAdjustmentMagenta = -15,
			SaturationAdjustmentOrange = -5,
			SaturationAdjustmentPurple = -10,
			SaturationAdjustmentRed = -15,
			SaturationAdjustmentYellow = 0,
			ShadowTint = 0,
			Shadows2012 = 15,
			SharpenDetail = 25,
			SharpenEdgeMasking = 0,
			SharpenRadius = 1.2,
			Sharpness = 40,
			SplitToningBalance = 0,
			SplitToningHighlightHue = 220,
			SplitToningHighlightSaturation = 5,
			SplitToningShadowHue = 0,
			SplitToningShadowSaturation = 0,
			ToneCurveName2012 = "Custom",
			ToneCurvePV2012 = {
				0,
				9,
				26,
				29,
				149,
				151,
				205,
				204,
				255,
				248,
			},
			ToneCurvePV2012Blue = {
				0,
				0,
				44,
				20,
				114,
				122,
				177,
				206,
				255,
				236,
			},
			ToneCurvePV2012Green = {
				0,
				0,
				44,
				21,
				114,
				120,
				180,
				200,
				255,
				248,
			},
			ToneCurvePV2012Red = {
				0,
				0,
				46,
				19,
				114,
				122,
				178,
				203,
				255,
				255,
			},
			Vibrance = 0,
			Whites2012 = 0,
		},
		uuid = "1D42A38D-9C6A-4384-B315-0FC7C75ABF11",
	},
	version = 0,
}
