data/VSCO_NIKON/VSCO Film 04 - Nikon/N - Fuji Fortia SP +++.lrtemplate
s = {
	id = "EAF37DA3-74F6-47FC-BF73-27717DA7C3B2",
	internalName = "Fuji Fortia SP +++",
	title = "N - Fuji Fortia SP +++",
	type = "Develop",
	value = {
		settings = {
			Blacks2012 = 15,
			BlueHue = 0,
			BlueSaturation = 30,
			CameraProfile = "Fuji Fortia SP - N",
			Clarity2012 = 0,
			Contrast2012 = 0,
			ConvertToGrayscale = false,
			EnableCalibration = true,
			EnableColorAdjustments = true,
			EnableDetail = true,
			EnableEffects = true,
			EnableSplitToning = true,
			GrainAmount = 15,
			GrainFrequency = 35,
			GrainSize = 35,
			GreenHue = 10,
			GreenSaturation = -10,
			Highlights2012 = -25,
			HueAdjustmentAqua = 0,
			HueAdjustmentBlue = 10,
			HueAdjustmentGreen = 15,
			HueAdjustmentMagenta = 15,
			HueAdjustmentOrange = -12,
			HueAdjustmentPurple = 30,
			HueAdjustmentRed = 12,
			HueAdjustmentYellow = -15,
			LuminanceAdjustmentAqua = -15,
			LuminanceAdjustmentBlue = -30,
			LuminanceAdjustmentGreen = -25,
			LuminanceAdjustmentMagenta = -15,
			LuminanceAdjustmentOrange = -10,
			LuminanceAdjustmentPurple = -5,
			LuminanceAdjustmentRed = -20,
			LuminanceAdjustmentYellow = 0,
			ParametricDarks = 0,
			ParametricHighlightSplit = 75,
			ParametricHighlights = 0,
			ParametricLights = 0,
			ParametricMidtoneSplit = 60,
			ParametricShadowSplit = 14,
			ParametricShadows = 0,
			ProcessVersion = "6.7",
			RedHue = 10,
			RedSaturation = 10,
			Saturation = 5,
			SaturationAdjustmentAqua = 0,
			SaturationAdjustmentBlue = 10,
			SaturationAdjustmentGreen = -10,
			SaturationAdjustmentMagenta = -15,
			SaturationAdjustmentOrange = 0,
			SaturationAdjustmentPurple = 0,
			SaturationAdjustmentRed = 0,
			SaturationAdjustmentYellow = 0,
			ShadowTint = -5,
			Shadows2012 = 15,
			SharpenDetail = 25,
			SharpenEdgeMasking = 0,
			SharpenRadius = 1.2,
			Sharpness = 40,
			SplitToningBalance = 0,
			SplitToningHighlightHue = 275,
			SplitToningHighlightSaturation = 0,
			SplitToningShadowHue = 0,
			SplitToningShadowSaturation = 0,
			ToneCurveName2012 = "Custom",
			ToneCurvePV2012 = {
				0,
				23,
				46,
				56,
				115,
				118,
				198,
				199,
				255,
				255,
			},
			ToneCurvePV2012Blue = {
				0,
				13,
				50,
				38,
				103,
				117,
				171,
				204,
				255,
				253,
			},
			ToneCurvePV2012Green = {
				0,
				0,
				37,
				7,
				55,
				23,
				104,
				115,
				174,
				201,
				255,
				255,
			},
			ToneCurvePV2012Red = {
				0,
				0,
				37,
				7,
				56,
				24,
				104,
				112,
				172,
				205,
				255,
				255,
			},
			Vibrance = 5,
			Whites2012 = 0,
		},
		uuid = "D15B54BF-704E-4EE8-BA63-5421BAC02669",
	},
	version = 0,
}
