data/VSCO_NIKON/VSCO Film 04 - Nikon/N - Fuji Provia 400X Portrait.lrtemplate
s = {
	id = "9713FFA2-1631-40A7-98EE-67D2666CC99F",
	internalName = "Fuji Provia 400X P",
	title = "N - Fuji Provia 400X Portrait",
	type = "Develop",
	value = {
		settings = {
			Blacks2012 = 25,
			BlueHue = -15,
			BlueSaturation = 25,
			CameraProfile = "Fuji Provia 400X - N",
			Clarity2012 = 0,
			Contrast2012 = 0,
			ConvertToGrayscale = false,
			EnableCalibration = true,
			EnableColorAdjustments = true,
			EnableDetail = true,
			EnableEffects = true,
			EnableSplitToning = true,
			GrainAmount = 25,
			GrainFrequency = 35,
			GrainSize = 30,
			GreenHue = 15,
			GreenSaturation = -10,
			Highlights2012 = -25,
			HueAdjustmentAqua = 0,
			HueAdjustmentBlue = 10,
			HueAdjustmentGreen = 25,
			HueAdjustmentMagenta = 15,
			HueAdjustmentOrange = 5,
			HueAdjustmentPurple = 30,
			HueAdjustmentRed = 15,
			HueAdjustmentYellow = 0,
			LuminanceAdjustmentAqua = -15,
			LuminanceAdjustmentBlue = -15,
			LuminanceAdjustmentGreen = -25,
			LuminanceAdjustmentMagenta = 5,
			LuminanceAdjustmentOrange = -2,
			LuminanceAdjustmentPurple = -10,
			LuminanceAdjustmentRed = -10,
			LuminanceAdjustmentYellow = 0,
			ParametricDarks = 0,
			ParametricHighlightSplit = 75,
			ParametricHighlights = 0,
			ParametricLights = 0,
			ParametricMidtoneSplit = 60,
			ParametricShadowSplit = 14,
			ParametricShadows = 0,
			ProcessVersion = "6.7",
			RedHue = 15,
			RedSaturation = 5,
			Saturation = -5,
			SaturationAdjustmentAqua = 0,
			SaturationAdjustmentBlue = 10,
			SaturationAdjustmentGreen = -30,
			SaturationAdjustmentMagenta = -20,
			SaturationAdjustmentOrange = -5,
			SaturationAdjustmentPurple = -10,
			SaturationAdjustmentRed = -10,
			SaturationAdjustmentYellow = 0,
			ShadowTint = 0,
			Shadows2012 = 20,
			SharpenDetail = 25,
			SharpenEdgeMasking = 0,
			SharpenRadius = 1.2,
			Sharpness = 40,
			SplitToningBalance = 0,
			SplitToningHighlightHue = 220,
			SplitToningHighlightSaturation = 0,
			SplitToningShadowHue = 0,
			SplitToningShadowSaturation = 0,
			ToneCurveName2012 = "Custom",
			ToneCurvePV2012 = {
				0,
				0,
				255,
				255,
			},
			ToneCurvePV2012Blue = {
				0,
				0,
				43,
				22,
				115,
				121,
				177,
				205,
				215,
				235,
				255,
				255,
			},
			ToneCurvePV2012Green = {
				0,
				0,
				43,
				20,
				114,
				121,
				174,
				203,
				255,
				255,
			},
			ToneCurvePV2012Red = {
				0,
				0,
				48,
				20,
				114,
				123,
				178,
				203,
				235,
				242,
				255,
				255,
			},
			Vibrance = 0,
			Whites2012 = -15,
		},
		uuid = "CD7E203F-EAC4-4FDB-9189-B466F932AF85",
	},
	version = 0,
}
