data/VSCO_NIKON/VSCO Film 04 - Nikon/N - Fuji Astia 100F - -.lrtemplate
s = {
	id = "964F485C-646B-448B-AAF2-2E44E30D9B26",
	internalName = "Fuji Astia 100F - -",
	title = "N - Fuji Astia 100F - -",
	type = "Develop",
	value = {
		settings = {
			Blacks2012 = 25,
			BlueHue = -15,
			BlueSaturation = 25,
			CameraProfile = "Fuji Astia 100F - N",
			Clarity2012 = 0,
			Contrast2012 = 0,
			ConvertToGrayscale = false,
			EnableCalibration = true,
			EnableColorAdjustments = true,
			EnableDetail = true,
			EnableEffects = true,
			EnableSplitToning = true,
			GrainAmount = 0,
			GrainFrequency = 30,
			GrainSize = 30,
			GreenHue = -10,
			GreenSaturation = -10,
			Highlights2012 = -25,
			HueAdjustmentAqua = 0,
			HueAdjustmentBlue = 5,
			HueAdjustmentGreen = 18,
			HueAdjustmentMagenta = 15,
			HueAdjustmentOrange = -2,
			HueAdjustmentPurple = 30,
			HueAdjustmentRed = 8,
			HueAdjustmentYellow = 0,
			LuminanceAdjustmentAqua = 0,
			LuminanceAdjustmentBlue = -10,
			LuminanceAdjustmentGreen = -15,
			LuminanceAdjustmentMagenta = -25,
			LuminanceAdjustmentOrange = 0,
			LuminanceAdjustmentPurple = -10,
			LuminanceAdjustmentRed = -20,
			LuminanceAdjustmentYellow = 0,
			ParametricDarks = 0,
			ParametricHighlightSplit = 75,
			ParametricHighlights = 0,
			ParametricLights = 0,
			ParametricMidtoneSplit = 60,
			ParametricShadowSplit = 14,
			ParametricShadows = 0,
			ProcessVersion = "6.7",
			RedHue = 10,
			RedSaturation = 0,
			Saturation = 0,
			SaturationAdjustmentAqua = -15,
			SaturationAdjustmentBlue = 0,
			SaturationAdjustmentGreen = -30,
			SaturationAdjustmentMagenta = -20,
			SaturationAdjustmentOrange = -5,
			SaturationAdjustmentPurple = -10,
			SaturationAdjustmentRed = -10,
			SaturationAdjustmentYellow = 0,
			ShadowTint = 0,
			Shadows2012 = 25,
			SharpenDetail = 25,
			SharpenEdgeMasking = 0,
			SharpenRadius = 1.2,
			Sharpness = 40,
			SplitToningBalance = 0,
			SplitToningHighlightHue = 0,
			SplitToningHighlightSaturation = 0,
			SplitToningShadowHue = 0,
			SplitToningShadowSaturation = 0,
			ToneCurveName2012 = "Custom",
			ToneCurvePV2012 = {
				0,
				0,
				48,
				57,
				128,
				128,
				196,
				190,
				255,
				255,
			},
			ToneCurvePV2012Blue = {
				0,
				0,
				40,
				26,
				119,
				124,
				181,
				200,
				255,
				255,
			},
			ToneCurvePV2012Green = {
				0,
				0,
				40,
				25,
				119,
				125,
				184,
				197,
				255,
				255,
			},
			ToneCurvePV2012Red = {
				0,
				0,
				40,
				26,
				119,
				123,
				185,
				195,
				255,
				255,
			},
			Vibrance = 0,
			Whites2012 = -10,
		},
		uuid = "C50268BF-ABAD-40F9-B672-B7438D8F02AD",
	},
	version = 0,
}
