data/VSCO_NIKON/VSCO Film 04 - Nikon/N - Fuji Provia 100F ++++.lrtemplate
s = {
	id = "BBC2BC22-ED07-4AB6-83B9-6B500B8FDB03",
	internalName = "Fuji Provia 100F +++",
	title = "N - Fuji Provia 100F ++++",
	type = "Develop",
	value = {
		settings = {
			Blacks2012 = 25,
			BlueHue = -15,
			BlueSaturation = 25,
			CameraProfile = "Fuji Provia 100F - N",
			Clarity2012 = 0,
			Contrast2012 = 0,
			ConvertToGrayscale = false,
			EnableCalibration = true,
			EnableColorAdjustments = true,
			EnableDetail = true,
			EnableEffects = true,
			EnableSplitToning = true,
			GrainAmount = 30,
			GrainFrequency = 30,
			GrainSize = 30,
			GreenHue = 10,
			GreenSaturation = -10,
			Highlights2012 = -25,
			HueAdjustmentAqua = 0,
			HueAdjustmentBlue = 5,
			HueAdjustmentGreen = 12,
			HueAdjustmentMagenta = 15,
			HueAdjustmentOrange = 2,
			HueAdjustmentPurple = 20,
			HueAdjustmentRed = 12,
			HueAdjustmentYellow = 0,
			LuminanceAdjustmentAqua = -15,
			LuminanceAdjustmentBlue = -20,
			LuminanceAdjustmentGreen = -25,
			LuminanceAdjustmentMagenta = -15,
			LuminanceAdjustmentOrange = -12,
			LuminanceAdjustmentPurple = -10,
			LuminanceAdjustmentRed = -20,
			LuminanceAdjustmentYellow = 0,
			ParametricDarks = 0,
			ParametricHighlightSplit = 75,
			ParametricHighlights = 0,
			ParametricLights = 0,
			ParametricMidtoneSplit = 60,
			ParametricShadowSplit = 14,
			ParametricShadows = 0,
			ProcessVersion = "6.7",
			RedHue = 10,
			RedSaturation = -25,
			Saturation = 0,
			SaturationAdjustmentAqua = 0,
			SaturationAdjustmentBlue = -15,
			SaturationAdjustmentGreen = -30,
			SaturationAdjustmentMagenta = -15,
			SaturationAdjustmentOrange = -5,
			SaturationAdjustmentPurple = -10,
			SaturationAdjustmentRed = -15,
			SaturationAdjustmentYellow = 0,
			ShadowTint = 0,
			Shadows2012 = 15,
			SharpenDetail = 25,
			SharpenEdgeMasking = 0,
			SharpenRadius = 1.2,
			Sharpness = 40,
			SplitToningBalance = 0,
			SplitToningHighlightHue = 220,
			SplitToningHighlightSaturation = 10,
			SplitToningShadowHue = 0,
			SplitToningShadowSaturation = 0,
			ToneCurveName2012 = "Custom",
			ToneCurvePV2012 = {
				1,
				16,
				53,
				44,
				129,
				124,
				255,
				252,
			},
			ToneCurvePV2012Blue = {
				0,
				0,
				41,
				29,
				107,
				122,
				180,
				215,
				255,
				245,
			},
			ToneCurvePV2012Green = {
				0,
				2,
				42,
				23,
				115,
				121,
				176,
				204,
				218,
				237,
				255,
				255,
			},
			ToneCurvePV2012Red = {
				0,
				0,
				43,
				20,
				112,
				124,
				173,
				205,
				255,
				255,
			},
			Vibrance = 0,
			Whites2012 = 0,
		},
		uuid = "E3D67E0A-CBA9-4C5A-9B6A-9BE3596FCC8C",
	},
	version = 0,
}
