data/VSCO_CANON/VSCO Film 03 Consumer - Canon/C - PX-100UV+ Cold -.lrtemplate
s = {
	id = "DCD36B9B-8DD8-4E27-A9B0-4C6F20245E10",
	internalName = "PX-100UV+ Cold -",
	title = "C - PX-100UV+ Cold -",
	type = "Develop",
	value = {
		settings = {
			Blacks2012 = 0,
			BlueHue = 0,
			BlueSaturation = 0,
			CameraProfile = "PX-100UV+ C",
			Clarity2012 = -5,
			Contrast2012 = 0,
			ConvertToGrayscale = true,
			EnableCalibration = true,
			EnableDetail = true,
			EnableEffects = true,
			EnableGrayscaleMix = true,
			EnableSplitToning = true,
			GrainAmount = 10,
			GrainFrequency = 70,
			GrainSize = 75,
			GrayMixerAqua = -12,
			GrayMixerBlue = 25,
			GrayMixerGreen = -25,
			GrayMixerMagenta = 30,
			GrayMixerOrange = -12,
			GrayMixerPurple = 40,
			GrayMixerRed = 20,
			GrayMixerYellow = -20,
			GreenHue = 0,
			GreenSaturation = 0,
			Highlights2012 = -10,
			ParametricDarks = 0,
			ParametricHighlightSplit = 75,
			ParametricHighlights = 0,
			ParametricLights = 0,
			ParametricMidtoneSplit = 50,
			ParametricShadowSplit = 25,
			ParametricShadows = 0,
			ProcessVersion = "6.7",
			RedHue = 0,
			RedSaturation = 0,
			ShadowTint = 0,
			Shadows2012 = 10,
			SharpenDetail = 25,
			SharpenEdgeMasking = 0,
			SharpenRadius = 1,
			Sharpness = 15,
			SplitToningBalance = 0,
			SplitToningHighlightHue = 0,
			SplitToningHighlightSaturation = 0,
			SplitToningShadowHue = 0,
			SplitToningShadowSaturation = 0,
			ToneCurveName2012 = "Custom",
			ToneCurvePV2012 = {
				0,
				25,
				33,
				64,
				127,
				140,
				207,
				196,
				255,
				244,
			},
			ToneCurvePV2012Blue = {
				0,
				0,
				49,
				50,
				131,
				130,
				197,
				188,
				255,
				241,
			},
			ToneCurvePV2012Green = {
				0,
				0,
				255,
				255,
			},
			ToneCurvePV2012Red = {
				0,
				0,
				42,
				40,
				122,
				120,
				194,
				191,
				255,
				255,
			},
			Whites2012 = 0,
		},
		uuid = "6B01CBF7-342D-4148-B7D4-84302FC8FE7F",
	},
	version = 0,
}
