data/VSCO_CANON/VSCO Film 03 Consumer - Canon/C - PX-70 Warm - -.lrtemplate
s = {
	id = "AA9494AA-3DC0-47CD-B086-70BA667A6A3A",
	internalName = "PX-70 Start Warm - -",
	title = "C - PX-70 Warm - -",
	type = "Develop",
	value = {
		settings = {
			Blacks2012 = 0,
			BlueHue = -10,
			BlueSaturation = -15,
			CameraProfile = "PX-70 C",
			Clarity2012 = 0,
			Contrast2012 = 0,
			ConvertToGrayscale = false,
			EnableCalibration = true,
			EnableColorAdjustments = true,
			EnableDetail = true,
			EnableEffects = true,
			EnableSplitToning = true,
			GrainAmount = 15,
			GrainFrequency = 35,
			GrainSize = 40,
			GreenHue = 0,
			GreenSaturation = 0,
			Highlights2012 = -20,
			HueAdjustmentAqua = 0,
			HueAdjustmentBlue = -15,
			HueAdjustmentGreen = 20,
			HueAdjustmentMagenta = 25,
			HueAdjustmentOrange = 0,
			HueAdjustmentPurple = 25,
			HueAdjustmentRed = 30,
			HueAdjustmentYellow = 0,
			LuminanceAdjustmentAqua = -5,
			LuminanceAdjustmentBlue = -15,
			LuminanceAdjustmentGreen = 0,
			LuminanceAdjustmentMagenta = 10,
			LuminanceAdjustmentOrange = -5,
			LuminanceAdjustmentPurple = 30,
			LuminanceAdjustmentRed = 16,
			LuminanceAdjustmentYellow = 0,
			ParametricDarks = 0,
			ParametricHighlightSplit = 75,
			ParametricHighlights = 0,
			ParametricLights = 0,
			ParametricMidtoneSplit = 60,
			ParametricShadowSplit = 14,
			ParametricShadows = 0,
			ProcessVersion = "6.7",
			RedHue = 20,
			RedSaturation = -5,
			Saturation = -10,
			SaturationAdjustmentAqua = -25,
			SaturationAdjustmentBlue = -25,
			SaturationAdjustmentGreen = -40,
			SaturationAdjustmentMagenta = -40,
			SaturationAdjustmentOrange = -12,
			SaturationAdjustmentPurple = -80,
			SaturationAdjustmentRed = -30,
			SaturationAdjustmentYellow = -20,
			ShadowTint = 0,
			Shadows2012 = 0,
			SharpenDetail = 25,
			SharpenEdgeMasking = 0,
			SharpenRadius = 1,
			Sharpness = 25,
			SplitToningBalance = 0,
			SplitToningHighlightHue = 0,
			SplitToningHighlightSaturation = 0,
			SplitToningShadowHue = 0,
			SplitToningShadowSaturation = 0,
			ToneCurveName2012 = "PX-70 Warm - -",
			ToneCurvePV2012 = {
				0,
				0,
				21,
				28,
				46,
				54,
				79,
				92,
				120,
				135,
				200,
				204,
				255,
				255,
			},
			ToneCurvePV2012Blue = {
				0,
				0,
				39,
				32,
				117,
				113,
				186,
				174,
				255,
				249,
			},
			ToneCurvePV2012Green = {
				0,
				0,
				47,
				35,
				97,
				120,
				172,
				203,
				226,
				237,
				255,
				255,
			},
			ToneCurvePV2012Red = {
				0,
				0,
				48,
				36,
				96,
				124,
				178,
				209,
				255,
				255,
			},
			Vibrance = 0,
			Whites2012 = -25,
		},
		uuid = "FBA5C6F5-2462-4A3C-B64A-F58BC179797C",
	},
	version = 0,
}
