data/VSCO_CANON/VSCO Film 03 Consumer - Canon/C - PX-100UV+ Warm -.lrtemplate
s = {
	id = "0295D572-8E27-424E-BDEF-EA84FD899E89",
	internalName = "PX-100UV+ Warm -",
	title = "C - PX-100UV+ Warm -",
	type = "Develop",
	value = {
		settings = {
			Blacks2012 = 0,
			BlueHue = 0,
			BlueSaturation = 0,
			CameraProfile = "PX-100UV+ C",
			Clarity2012 = -5,
			Contrast2012 = 0,
			ConvertToGrayscale = true,
			EnableCalibration = true,
			EnableDetail = true,
			EnableEffects = true,
			EnableGrayscaleMix = true,
			EnableSplitToning = true,
			GrainAmount = 10,
			GrainFrequency = 70,
			GrainSize = 75,
			GrayMixerAqua = -12,
			GrayMixerBlue = 25,
			GrayMixerGreen = -25,
			GrayMixerMagenta = 30,
			GrayMixerOrange = -12,
			GrayMixerPurple = 40,
			GrayMixerRed = 20,
			GrayMixerYellow = -20,
			GreenHue = 0,
			GreenSaturation = 0,
			Highlights2012 = -10,
			ParametricDarks = 0,
			ParametricHighlightSplit = 75,
			ParametricHighlights = 0,
			ParametricLights = 0,
			ParametricMidtoneSplit = 50,
			ParametricShadowSplit = 25,
			ParametricShadows = 0,
			ProcessVersion = "6.7",
			RedHue = 0,
			RedSaturation = 0,
			ShadowTint = 0,
			Shadows2012 = 10,
			SharpenDetail = 25,
			SharpenEdgeMasking = 0,
			SharpenRadius = 1,
			Sharpness = 15,
			SplitToningBalance = 0,
			SplitToningHighlightHue = 0,
			SplitToningHighlightSaturation = 0,
			SplitToningShadowHue = 0,
			SplitToningShadowSaturation = 0,
			ToneCurveName2012 = "Custom",
			ToneCurvePV2012 = {
				0,
				25,
				51,
				83,
				127,
				140,
				207,
				196,
				255,
				241,
			},
			ToneCurvePV2012Blue = {
				0,
				3,
				48,
				48,
				131,
				130,
				194,
				189,
				255,
				253,
			},
			ToneCurvePV2012Green = {
				0,
				0,
				127,
				127,
				255,
				255,
			},
			ToneCurvePV2012Red = {
				0,
				4,
				57,
				59,
				191,
				192,
				255,
				255,
			},
			Whites2012 = 0,
		},
		uuid = "9115F075-40F0-4216-9B6D-F08ED1932601",
	},
	version = 0,
}
