data/VSCO_CANON/VSCO Film 03 Consumer - Canon/~C - PX-70 +++.lrtemplate
s = {
	id = "324B358E-0BE2-4B0D-B984-649E793763EF",
	internalName = "PX-70 Start +++",
	title = "C - PX-70 +++",
	type = "Develop",
	value = {
		settings = {
			Blacks2012 = -45,
			BlueHue = -10,
			BlueSaturation = -15,
			CameraProfile = "PX-70 C",
			Clarity2012 = -20,
			Contrast2012 = -20,
			ConvertToGrayscale = false,
			EnableCalibration = true,
			EnableColorAdjustments = true,
			EnableDetail = true,
			EnableEffects = true,
			EnableSplitToning = true,
			GrainAmount = 15,
			GrainFrequency = 35,
			GrainSize = 40,
			GreenHue = 0,
			GreenSaturation = 0,
			Highlights2012 = -20,
			HueAdjustmentAqua = 0,
			HueAdjustmentBlue = -15,
			HueAdjustmentGreen = 20,
			HueAdjustmentMagenta = 25,
			HueAdjustmentOrange = 0,
			HueAdjustmentPurple = 25,
			HueAdjustmentRed = 30,
			HueAdjustmentYellow = 0,
			LuminanceAdjustmentAqua = -5,
			LuminanceAdjustmentBlue = -15,
			LuminanceAdjustmentGreen = 0,
			LuminanceAdjustmentMagenta = 10,
			LuminanceAdjustmentOrange = -5,
			LuminanceAdjustmentPurple = 30,
			LuminanceAdjustmentRed = 16,
			LuminanceAdjustmentYellow = 0,
			ParametricDarks = 0,
			ParametricHighlightSplit = 75,
			ParametricHighlights = 0,
			ParametricLights = 0,
			ParametricMidtoneSplit = 60,
			ParametricShadowSplit = 14,
			ParametricShadows = 0,
			ProcessVersion = "6.7",
			RedHue = 35,
			RedSaturation = -5,
			Saturation = -40,
			SaturationAdjustmentAqua = -25,
			SaturationAdjustmentBlue = -25,
			SaturationAdjustmentGreen = -40,
			SaturationAdjustmentMagenta = -40,
			SaturationAdjustmentOrange = -12,
			SaturationAdjustmentPurple = -80,
			SaturationAdjustmentRed = -30,
			SaturationAdjustmentYellow = -20,
			ShadowTint = 0,
			Shadows2012 = 0,
			SharpenDetail = 25,
			SharpenEdgeMasking = 0,
			SharpenRadius = 1,
			Sharpness = 0,
			SplitToningBalance = 0,
			SplitToningHighlightHue = 0,
			SplitToningHighlightSaturation = 0,
			SplitToningShadowHue = 0,
			SplitToningShadowSaturation = 0,
			ToneCurveName2012 = "Custom",
			ToneCurvePV2012 = {
				0,
				85,
				39,
				86,
				83,
				103,
				119,
				135,
				206,
				193,
				255,
				202,
			},
			ToneCurvePV2012Blue = {
				1,
				53,
				63,
				68,
				128,
				102,
				255,
				145,
			},
			ToneCurvePV2012Green = {
				0,
				46,
				47,
				50,
				99,
				119,
				175,
				199,
				255,
				228,
			},
			ToneCurvePV2012Red = {
				0,
				0,
				50,
				23,
				101,
				121,
				179,
				206,
				255,
				246,
			},
			Vibrance = 0,
			Whites2012 = -25,
		},
		uuid = "4F59B167-0238-4E04-BEA8-C21778B5302B",
	},
	version = 0,
}
