data/VSCO_CANON/VSCO Film 03 Professional - Canon/C - Polaroid 690 ++.lrtemplate
s = {
	id = "74029249-71DD-40D1-812B-DD791981DC0D",
	internalName = "Polaroid 690 Redo ++",
	title = "C - Polaroid 690 ++",
	type = "Develop",
	value = {
		settings = {
			Blacks2012 = 0,
			BlueHue = -5,
			BlueSaturation = 0,
			CameraProfile = "Polaroid 690 C",
			Clarity2012 = -10,
			Contrast2012 = 0,
			ConvertToGrayscale = false,
			EnableCalibration = true,
			EnableColorAdjustments = true,
			EnableDetail = true,
			EnableEffects = true,
			EnableSplitToning = true,
			GrainAmount = 10,
			GrainFrequency = 40,
			GrainSize = 60,
			GreenHue = -15,
			GreenSaturation = 0,
			Highlights2012 = -10,
			HueAdjustmentAqua = 0,
			HueAdjustmentBlue = 0,
			HueAdjustmentGreen = -5,
			HueAdjustmentMagenta = 15,
			HueAdjustmentOrange = 0,
			HueAdjustmentPurple = 0,
			HueAdjustmentRed = -10,
			HueAdjustmentYellow = 0,
			LuminanceAdjustmentAqua = -5,
			LuminanceAdjustmentBlue = -25,
			LuminanceAdjustmentGreen = -25,
			LuminanceAdjustmentMagenta = -20,
			LuminanceAdjustmentOrange = 0,
			LuminanceAdjustmentPurple = 10,
			LuminanceAdjustmentRed = -35,
			LuminanceAdjustmentYellow = -10,
			ParametricDarks = 0,
			ParametricHighlightSplit = 75,
			ParametricHighlights = 0,
			ParametricLights = 0,
			ParametricMidtoneSplit = 60,
			ParametricShadowSplit = 14,
			ParametricShadows = 0,
			ProcessVersion = "6.7",
			RedHue = 20,
			RedSaturation = 0,
			Saturation = -8,
			SaturationAdjustmentAqua = -25,
			SaturationAdjustmentBlue = -20,
			SaturationAdjustmentGreen = -10,
			SaturationAdjustmentMagenta = -20,
			SaturationAdjustmentOrange = -6,
			SaturationAdjustmentPurple = -15,
			SaturationAdjustmentRed = 0,
			SaturationAdjustmentYellow = 5,
			ShadowTint = 0,
			Shadows2012 = 15,
			SharpenDetail = 25,
			SharpenEdgeMasking = 0,
			SharpenRadius = 1.2,
			Sharpness = 0,
			SplitToningBalance = 0,
			SplitToningHighlightHue = 0,
			SplitToningHighlightSaturation = 0,
			SplitToningShadowHue = 0,
			SplitToningShadowSaturation = 0,
			ToneCurveName2012 = "Custom",
			ToneCurvePV2012 = {
				0,
				83,
				61,
				91,
				133,
				134,
				192,
				190,
				255,
				251,
			},
			ToneCurvePV2012Blue = {
				0,
				0,
				55,
				22,
				120,
				124,
				195,
				218,
				255,
				239,
			},
			ToneCurvePV2012Green = {
				0,
				0,
				43,
				24,
				119,
				122,
				150,
				164,
				186,
				198,
				229,
				232,
				255,
				255,
			},
			ToneCurvePV2012Red = {
				0,
				0,
				47,
				29,
				119,
				130,
				213,
				229,
				255,
				247,
			},
			Vibrance = 0,
			Whites2012 = -10,
		},
		uuid = "307373F4-73AD-4D07-AC81-285B215012B9",
	},
	version = 0,
}
