data/VSCO_CANON/VSCO Film 03 Professional - Canon/~C - Fuji FP-3000b -.lrtemplate
s = {
	id = "EA8092D6-0FE0-4E47-8155-853BC0641680",
	internalName = "Fuji FP-3000b -",
	title = "C - Fuji FP-3000b -",
	type = "Develop",
	value = {
		settings = {
			Blacks2012 = -25,
			BlueHue = 0,
			BlueSaturation = 0,
			CameraProfile = "Fuji FP-3000b C",
			Clarity2012 = -5,
			Contrast2012 = 0,
			ConvertToGrayscale = true,
			EnableCalibration = true,
			EnableDetail = true,
			EnableEffects = true,
			EnableGrayscaleMix = true,
			EnableSplitToning = true,
			GrainAmount = 15,
			GrainFrequency = 60,
			GrainSize = 40,
			GrayMixerAqua = 0,
			GrayMixerBlue = 15,
			GrayMixerGreen = -30,
			GrayMixerMagenta = 30,
			GrayMixerOrange = 2,
			GrayMixerPurple = 35,
			GrayMixerRed = 12,
			GrayMixerYellow = 0,
			GreenHue = 0,
			GreenSaturation = 0,
			Highlights2012 = -10,
			ParametricDarks = 0,
			ParametricHighlightSplit = 75,
			ParametricHighlights = 0,
			ParametricLights = 0,
			ParametricMidtoneSplit = 50,
			ParametricShadowSplit = 25,
			ParametricShadows = 0,
			ProcessVersion = "6.7",
			RedHue = 0,
			RedSaturation = 0,
			ShadowTint = 0,
			Shadows2012 = 15,
			SharpenDetail = 25,
			SharpenEdgeMasking = 0,
			SharpenRadius = 1,
			Sharpness = 15,
			SplitToningBalance = 0,
			SplitToningHighlightHue = 0,
			SplitToningHighlightSaturation = 0,
			SplitToningShadowHue = 0,
			SplitToningShadowSaturation = 0,
			ToneCurveName2012 = "Custom",
			ToneCurvePV2012 = {
				0,
				8,
				36,
				46,
				158,
				156,
				255,
				250,
			},
			ToneCurvePV2012Blue = {
				0,
				0,
				255,
				255,
			},
			ToneCurvePV2012Green = {
				0,
				0,
				255,
				255,
			},
			ToneCurvePV2012Red = {
				0,
				0,
				255,
				255,
			},
			Whites2012 = 0,
		},
		uuid = "BEAF2207-DA3D-49E4-99DE-14D7C086CB2F",
	},
	version = 0,
}
