data/VSCO_CANON/VSCO Film 03 Professional - Canon/~C - Fuji FP-100c Cool ++.lrtemplate
s = {
	id = "256BEBE6-8012-473F-AB49-6D6AC30BEBAB",
	internalName = "Fuji FP-100c +",
	title = "C - Fuji FP-100c Cool ++",
	type = "Develop",
	value = {
		settings = {
			Blacks2012 = 5,
			BlueHue = 0,
			BlueSaturation = 12,
			CameraProfile = "Fuji FP-100c C",
			Clarity2012 = -10,
			Contrast2012 = 0,
			ConvertToGrayscale = false,
			EnableCalibration = true,
			EnableColorAdjustments = true,
			EnableDetail = true,
			EnableEffects = true,
			EnableSplitToning = true,
			GrainAmount = 10,
			GrainFrequency = 10,
			GrainSize = 10,
			GreenHue = -5,
			GreenSaturation = 0,
			Highlights2012 = -10,
			HueAdjustmentAqua = 25,
			HueAdjustmentBlue = -5,
			HueAdjustmentGreen = 0,
			HueAdjustmentMagenta = 0,
			HueAdjustmentOrange = 0,
			HueAdjustmentPurple = 30,
			HueAdjustmentRed = 15,
			HueAdjustmentYellow = -5,
			LuminanceAdjustmentAqua = -15,
			LuminanceAdjustmentBlue = -40,
			LuminanceAdjustmentGreen = -30,
			LuminanceAdjustmentMagenta = -20,
			LuminanceAdjustmentOrange = -10,
			LuminanceAdjustmentPurple = 0,
			LuminanceAdjustmentRed = -25,
			LuminanceAdjustmentYellow = -25,
			ParametricDarks = 0,
			ParametricHighlightSplit = 75,
			ParametricHighlights = 0,
			ParametricLights = 0,
			ParametricMidtoneSplit = 50,
			ParametricShadowSplit = 25,
			ParametricShadows = 0,
			ProcessVersion = "6.7",
			RedHue = 10,
			RedSaturation = -15,
			Saturation = -8,
			SaturationAdjustmentAqua = -20,
			SaturationAdjustmentBlue = -30,
			SaturationAdjustmentGreen = -32,
			SaturationAdjustmentMagenta = -45,
			SaturationAdjustmentOrange = -16,
			SaturationAdjustmentPurple = 0,
			SaturationAdjustmentRed = -15,
			SaturationAdjustmentYellow = 0,
			ShadowTint = 0,
			Shadows2012 = 20,
			SharpenDetail = 25,
			SharpenEdgeMasking = 0,
			SharpenRadius = 1,
			Sharpness = 0,
			SplitToningBalance = 0,
			SplitToningHighlightHue = 0,
			SplitToningHighlightSaturation = 0,
			SplitToningShadowHue = 0,
			SplitToningShadowSaturation = 0,
			ToneCurveName2012 = "Custom",
			ToneCurvePV2012 = {
				0,
				54,
				26,
				59,
				51,
				76,
				135,
				152,
				201,
				206,
				255,
				251,
			},
			ToneCurvePV2012Blue = {
				0,
				1,
				32,
				19,
				121,
				131,
				222,
				237,
				255,
				255,
			},
			ToneCurvePV2012Green = {
				0,
				16,
				41,
				24,
				125,
				130,
				166,
				181,
				224,
				230,
				255,
				247,
			},
			ToneCurvePV2012Red = {
				0,
				10,
				36,
				24,
				121,
				126,
				222,
				233,
				255,
				251,
			},
			Vibrance = 0,
			Whites2012 = -10,
		},
		uuid = "DCFE3FC9-AA57-4A78-BC27-29A226DA64AF",
	},
	version = 0,
}
