data/VSCO_NIKON/VSCO Film 07 - Nikon/N - Agfa Optima 100 II - -.lrtemplate
s = {
	id = "2F4CAF7F-F77A-4555-80E3-BE67B4C4D14A",
	internalName = "N - Agfa Optima 100 II - -",
	title = "N - Agfa Optima 100 II - -",
	type = "Develop",
	value = {
		settings = {
			Blacks2012 = 40,
			BlueHue = 25,
			BlueSaturation = 20,
			CameraProfile = "Optima 100 II - N",
			Clarity2012 = 0,
			Contrast2012 = 0,
			ConvertToGrayscale = false,
			EnableCalibration = true,
			EnableColorAdjustments = true,
			EnableDetail = true,
			EnableEffects = true,
			EnableSplitToning = true,
			GrainAmount = 0,
			GrainFrequency = 55,
			GrainSize = 18,
			GreenHue = 25,
			GreenSaturation = -10,
			Highlights2012 = -25,
			HueAdjustmentAqua = -5,
			HueAdjustmentBlue = -15,
			HueAdjustmentGreen = 5,
			HueAdjustmentMagenta = 10,
			HueAdjustmentOrange = 0,
			HueAdjustmentPurple = -10,
			HueAdjustmentRed = 5,
			HueAdjustmentYellow = 0,
			LuminanceAdjustmentAqua = -15,
			LuminanceAdjustmentBlue = -20,
			LuminanceAdjustmentGreen = -10,
			LuminanceAdjustmentMagenta = 0,
			LuminanceAdjustmentOrange = 0,
			LuminanceAdjustmentPurple = -10,
			LuminanceAdjustmentRed = -15,
			LuminanceAdjustmentYellow = 5,
			ParametricDarks = 0,
			ParametricHighlightSplit = 67,
			ParametricHighlights = 0,
			ParametricLights = 0,
			ParametricMidtoneSplit = 39,
			ParametricShadowSplit = 20,
			ParametricShadows = 0,
			ProcessVersion = "6.7",
			RedHue = 15,
			RedSaturation = 30,
			Saturation = -5,
			SaturationAdjustmentAqua = -15,
			SaturationAdjustmentBlue = -20,
			SaturationAdjustmentGreen = -30,
			SaturationAdjustmentMagenta = -30,
			SaturationAdjustmentOrange = -5,
			SaturationAdjustmentPurple = -25,
			SaturationAdjustmentRed = -15,
			SaturationAdjustmentYellow = 5,
			ShadowTint = 0,
			Shadows2012 = 30,
			SharpenDetail = 25,
			SharpenEdgeMasking = 0,
			SharpenRadius = 1,
			Sharpness = 25,
			SplitToningBalance = 0,
			SplitToningHighlightHue = 0,
			SplitToningHighlightSaturation = 0,
			SplitToningShadowHue = 0,
			SplitToningShadowSaturation = 0,
			ToneCurveName2012 = "Agfa Optima 100 II - -",
			ToneCurvePV2012 = {
				0,
				0,
				13,
				20,
				64,
				67,
				128,
				125,
				196,
				191,
				255,
				255,
			},
			ToneCurvePV2012Blue = {
				0,
				0,
				17,
				11,
				78,
				70,
				132,
				136,
				186,
				192,
				255,
				255,
			},
			ToneCurvePV2012Green = {
				0,
				0,
				17,
				8,
				79,
				70,
				131,
				135,
				185,
				192,
				255,
				255,
			},
			ToneCurvePV2012Red = {
				0,
				0,
				17,
				10,
				77,
				69,
				128,
				136,
				185,
				195,
				255,
				255,
			},
			Vibrance = 0,
			Whites2012 = -25,
		},
		uuid = "E342409F-52E4-4B52-B88B-7079CE49ACDB",
	},
	version = 0,
}
