data/VSCO_NIKON/VSCO Film 07 - Nikon/N - Agfa RSX 50 II -.lrtemplate
s = {
	id = "7AE7FC9D-6EB2-494B-992F-07834E29DC80",
	internalName = "N - Agfa RSX 50 II -",
	title = "N - Agfa RSX 50 II -",
	type = "Develop",
	value = {
		settings = {
			Blacks2012 = 15,
			BlueHue = 0,
			BlueSaturation = 25,
			CameraProfile = "RSX 50 II - N",
			Clarity2012 = 0,
			Contrast2012 = 0,
			ConvertToGrayscale = false,
			EnableCalibration = true,
			EnableColorAdjustments = true,
			EnableDetail = true,
			EnableEffects = true,
			EnableSplitToning = true,
			GrainAmount = 10,
			GrainFrequency = 55,
			GrainSize = 20,
			GreenHue = 30,
			GreenSaturation = -55,
			Highlights2012 = -35,
			HueAdjustmentAqua = 10,
			HueAdjustmentBlue = 10,
			HueAdjustmentGreen = -15,
			HueAdjustmentMagenta = 15,
			HueAdjustmentOrange = 0,
			HueAdjustmentPurple = 20,
			HueAdjustmentRed = 8,
			HueAdjustmentYellow = -10,
			LuminanceAdjustmentAqua = -10,
			LuminanceAdjustmentBlue = -20,
			LuminanceAdjustmentGreen = -20,
			LuminanceAdjustmentMagenta = 0,
			LuminanceAdjustmentOrange = -10,
			LuminanceAdjustmentPurple = -10,
			LuminanceAdjustmentRed = -15,
			LuminanceAdjustmentYellow = -10,
			ParametricDarks = 0,
			ParametricHighlightSplit = 68,
			ParametricHighlights = 0,
			ParametricLights = 0,
			ParametricMidtoneSplit = 45,
			ParametricShadowSplit = 31,
			ParametricShadows = 0,
			ProcessVersion = "6.7",
			RedHue = 20,
			RedSaturation = 40,
			Saturation = 0,
			SaturationAdjustmentAqua = -10,
			SaturationAdjustmentBlue = -10,
			SaturationAdjustmentGreen = -10,
			SaturationAdjustmentMagenta = -30,
			SaturationAdjustmentOrange = -10,
			SaturationAdjustmentPurple = -20,
			SaturationAdjustmentRed = -15,
			SaturationAdjustmentYellow = -20,
			ShadowTint = 0,
			Shadows2012 = 15,
			SharpenDetail = 25,
			SharpenEdgeMasking = 0,
			SharpenRadius = 1,
			Sharpness = 25,
			SplitToningBalance = 0,
			SplitToningHighlightHue = 0,
			SplitToningHighlightSaturation = 0,
			SplitToningShadowHue = 0,
			SplitToningShadowSaturation = 0,
			ToneCurveName2012 = "Agfa RSX 50 II -",
			ToneCurvePV2012 = {
				0,
				0,
				18,
				21,
				71,
				76,
				127,
				130,
				255,
				255,
			},
			ToneCurvePV2012Blue = {
				0,
				0,
				56,
				47,
				126,
				130,
				192,
				200,
				255,
				255,
			},
			ToneCurvePV2012Green = {
				0,
				0,
				59,
				50,
				126,
				130,
				192,
				202,
				255,
				255,
			},
			ToneCurvePV2012Red = {
				0,
				0,
				59,
				47,
				126,
				130,
				192,
				202,
				255,
				255,
			},
			Vibrance = 0,
			Whites2012 = -10,
		},
		uuid = "7BC0C40A-CDA1-41FB-AE59-F378873F5A63",
	},
	version = 0,
}
