data/VSCO_NIKON/VSCO Film 05 Night-Tungsten - Nikon/N - Kodak Royal Gold 400 Night-Tungsten Alt.lrtemplate
s = {
	id = "03A684C0-A913-4495-ABC5-71046B64EC15",
	internalName = "Kodak Hi-Def 400 Night Warm",
	title = "N - Kodak Royal Gold 400 Night/Tungsten Alt",
	type = "Develop",
	value = {
		settings = {
			Blacks2012 = 20,
			BlueHue = 0,
			BlueSaturation = -30,
			CameraProfile = "Kodak Royal 400 - N",
			Clarity2012 = -5,
			Contrast2012 = 0,
			ConvertToGrayscale = false,
			EnableCalibration = true,
			EnableColorAdjustments = true,
			EnableDetail = true,
			EnableEffects = true,
			EnableSplitToning = true,
			GrainAmount = 20,
			GrainFrequency = 65,
			GrainSize = 40,
			GreenHue = 45,
			GreenSaturation = -20,
			Highlights2012 = -50,
			HueAdjustmentAqua = 10,
			HueAdjustmentBlue = 0,
			HueAdjustmentGreen = 0,
			HueAdjustmentMagenta = 20,
			HueAdjustmentOrange = 2,
			HueAdjustmentPurple = 0,
			HueAdjustmentRed = 0,
			HueAdjustmentYellow = 0,
			LuminanceAdjustmentAqua = 15,
			LuminanceAdjustmentBlue = -15,
			LuminanceAdjustmentGreen = 10,
			LuminanceAdjustmentMagenta = 10,
			LuminanceAdjustmentOrange = -5,
			LuminanceAdjustmentPurple = 20,
			LuminanceAdjustmentRed = -25,
			LuminanceAdjustmentYellow = 10,
			ParametricDarks = 10,
			ParametricHighlightSplit = 75,
			ParametricHighlights = 0,
			ParametricLights = 10,
			ParametricMidtoneSplit = 60,
			ParametricShadowSplit = 14,
			ParametricShadows = 0,
			ProcessVersion = "6.7",
			RedHue = 30,
			RedSaturation = 35,
			Saturation = 0,
			SaturationAdjustmentAqua = -40,
			SaturationAdjustmentBlue = -15,
			SaturationAdjustmentGreen = -35,
			SaturationAdjustmentMagenta = -35,
			SaturationAdjustmentOrange = -15,
			SaturationAdjustmentPurple = -45,
			SaturationAdjustmentRed = -25,
			SaturationAdjustmentYellow = -15,
			ShadowTint = -2,
			Shadows2012 = 35,
			SharpenDetail = 25,
			SharpenEdgeMasking = 0,
			SharpenRadius = 1,
			Sharpness = 0,
			SplitToningBalance = 0,
			SplitToningHighlightHue = 0,
			SplitToningHighlightSaturation = 0,
			SplitToningShadowHue = 0,
			SplitToningShadowSaturation = 0,
			ToneCurveName2012 = "Royal 400 N/T Alt",
			ToneCurvePV2012 = {
				0,
				18,
				39,
				43,
				76,
				80,
				185,
				191,
				255,
				245,
			},
			ToneCurvePV2012Blue = {
				0,
				1,
				54,
				37,
				119,
				114,
				186,
				190,
				255,
				255,
			},
			ToneCurvePV2012Green = {
				0,
				7,
				42,
				22,
				122,
				122,
				180,
				197,
				255,
				255,
			},
			ToneCurvePV2012Red = {
				0,
				0,
				27,
				10,
				65,
				44,
				119,
				120,
				181,
				198,
				255,
				255,
			},
			Vibrance = 0,
			Whites2012 = -30,
		},
		uuid = "6F1D516C-C194-4FB8-870F-994E24038595",
	},
	version = 0,
}
