data/VSCO_NIKON/VSCO Film 05 Night-Tungsten - Nikon/N - Kodak BW400CN Night-Tungsten.lrtemplate
s = {
	id = "6BED0244-8332-40E4-8C66-8B76A2DA9E1B",
	internalName = "Kodak BW400CN Night",
	title = "N - Kodak BW400CN Night/Tungsten",
	type = "Develop",
	value = {
		settings = {
			Blacks2012 = 25,
			BlueHue = 0,
			BlueSaturation = -30,
			CameraProfile = "Kodak BW400CN - N",
			Clarity2012 = -5,
			Contrast2012 = 0,
			ConvertToGrayscale = true,
			EnableCalibration = true,
			EnableDetail = true,
			EnableEffects = true,
			EnableGrayscaleMix = true,
			EnableSplitToning = true,
			GrainAmount = 45,
			GrainFrequency = 60,
			GrainSize = 20,
			GrayMixerAqua = -20,
			GrayMixerBlue = -20,
			GrayMixerGreen = 15,
			GrayMixerMagenta = 5,
			GrayMixerOrange = -15,
			GrayMixerPurple = 16,
			GrayMixerRed = 20,
			GrayMixerYellow = 0,
			GreenHue = 0,
			GreenSaturation = -75,
			Highlights2012 = -25,
			ParametricDarks = 0,
			ParametricHighlightSplit = 75,
			ParametricHighlights = 0,
			ParametricLights = 0,
			ParametricMidtoneSplit = 60,
			ParametricShadowSplit = 14,
			ParametricShadows = 0,
			ProcessVersion = "6.7",
			RedHue = 0,
			RedSaturation = -30,
			ShadowTint = 0,
			Shadows2012 = 15,
			SharpenDetail = 25,
			SharpenEdgeMasking = 0,
			SharpenRadius = 1,
			Sharpness = 25,
			SplitToningBalance = 0,
			SplitToningHighlightHue = 0,
			SplitToningHighlightSaturation = 0,
			SplitToningShadowHue = 0,
			SplitToningShadowSaturation = 0,
			ToneCurveName2012 = "BW400CN N/T",
			ToneCurvePV2012 = {
				0,
				0,
				31,
				31,
				114,
				117,
				255,
				248,
			},
			ToneCurvePV2012Blue = {
				0,
				0,
				255,
				255,
			},
			ToneCurvePV2012Green = {
				0,
				0,
				255,
				255,
			},
			ToneCurvePV2012Red = {
				0,
				0,
				255,
				255,
			},
			Whites2012 = -20,
		},
		uuid = "0720FEA9-EE28-439C-83BB-B9F6B2462CBF",
	},
	version = 0,
}
