data/VSCO_SONY/VSCO Film 07 - Sony/SO - Kodak Plus-X 125 +.lrtemplate
s = {
	id = "5B9F0137-F4B3-46F8-9F89-E889F3FB6ECF",
	internalName = "SO - Kodak Plus-X 125 +",
	title = "SO - Kodak Plus-X 125 +",
	type = "Develop",
	value = {
		settings = {
			Blacks2012 = 5,
			BlueHue = -25,
			BlueSaturation = -40,
			CameraProfile = "Plus-X 125 - SO",
			Clarity2012 = 0,
			Contrast2012 = 0,
			ConvertToGrayscale = true,
			EnableCalibration = true,
			EnableDetail = true,
			EnableEffects = true,
			EnableGrayscaleMix = true,
			EnableSplitToning = true,
			GrainAmount = 30,
			GrainFrequency = 70,
			GrainSize = 15,
			GrayMixerAqua = 0,
			GrayMixerBlue = -5,
			GrayMixerGreen = -10,
			GrayMixerMagenta = 0,
			GrayMixerOrange = 0,
			GrayMixerPurple = 20,
			GrayMixerRed = 0,
			GrayMixerYellow = -10,
			GreenHue = -40,
			GreenSaturation = 0,
			Highlights2012 = -20,
			ParametricDarks = 0,
			ParametricHighlightSplit = 75,
			ParametricHighlights = 0,
			ParametricLights = 0,
			ParametricMidtoneSplit = 44,
			ParametricShadowSplit = 25,
			ParametricShadows = 0,
			ProcessVersion = "6.7",
			RedHue = 50,
			RedSaturation = 5,
			ShadowTint = 0,
			Shadows2012 = 10,
			SharpenDetail = 25,
			SharpenEdgeMasking = 0,
			SharpenRadius = 1.5,
			Sharpness = 25,
			SplitToningBalance = 0,
			SplitToningHighlightHue = 0,
			SplitToningHighlightSaturation = 0,
			SplitToningShadowHue = 0,
			SplitToningShadowSaturation = 0,
			ToneCurveName2012 = "Kodak Plus-X 125 +",
			ToneCurvePV2012 = {
				0,
				12,
				46,
				44,
				206,
				202,
				255,
				255,
			},
			ToneCurvePV2012Blue = {
				0,
				0,
				255,
				255,
			},
			ToneCurvePV2012Green = {
				0,
				0,
				255,
				255,
			},
			ToneCurvePV2012Red = {
				0,
				0,
				255,
				255,
			},
			Whites2012 = -20,
		},
		uuid = "343879BC-4F55-4850-93B3-6FA186AC6A8E",
	},
	version = 0,
}
