data/VSCO_SONY/VSCO Film 03 Professional - Sony/SO - Polaroid 669 ++.lrtemplate
s = {
	id = "666BAABE-074E-416F-840D-D05890E03ACE",
	internalName = "Polaroid 669 Started +",
	title = "SO - Polaroid 669 ++",
	type = "Develop",
	value = {
		settings = {
			Blacks2012 = 0,
			BlueHue = -15,
			BlueSaturation = 0,
			CameraProfile = "Polaroid 669 SO",
			Clarity2012 = -10,
			Contrast2012 = 0,
			ConvertToGrayscale = false,
			EnableCalibration = true,
			EnableColorAdjustments = true,
			EnableDetail = true,
			EnableEffects = true,
			EnableSplitToning = true,
			GrainAmount = 25,
			GrainFrequency = 40,
			GrainSize = 60,
			GreenHue = 0,
			GreenSaturation = 0,
			Highlights2012 = -15,
			HueAdjustmentAqua = -15,
			HueAdjustmentBlue = -30,
			HueAdjustmentGreen = -5,
			HueAdjustmentMagenta = 15,
			HueAdjustmentOrange = -2,
			HueAdjustmentPurple = 0,
			HueAdjustmentRed = 10,
			HueAdjustmentYellow = -10,
			LuminanceAdjustmentAqua = -5,
			LuminanceAdjustmentBlue = -15,
			LuminanceAdjustmentGreen = -40,
			LuminanceAdjustmentMagenta = 10,
			LuminanceAdjustmentOrange = -10,
			LuminanceAdjustmentPurple = 20,
			LuminanceAdjustmentRed = -20,
			LuminanceAdjustmentYellow = -35,
			ParametricDarks = 0,
			ParametricHighlightSplit = 75,
			ParametricHighlights = 0,
			ParametricLights = 0,
			ParametricMidtoneSplit = 60,
			ParametricShadowSplit = 14,
			ParametricShadows = 0,
			ProcessVersion = "6.7",
			RedHue = 10,
			RedSaturation = -5,
			Saturation = -30,
			SaturationAdjustmentAqua = -10,
			SaturationAdjustmentBlue = -30,
			SaturationAdjustmentGreen = -20,
			SaturationAdjustmentMagenta = -40,
			SaturationAdjustmentOrange = -15,
			SaturationAdjustmentPurple = -45,
			SaturationAdjustmentRed = -15,
			SaturationAdjustmentYellow = 0,
			ShadowTint = 0,
			Shadows2012 = 25,
			SharpenDetail = 25,
			SharpenEdgeMasking = 0,
			SharpenRadius = 1.2,
			Sharpness = 0,
			SplitToningBalance = 0,
			SplitToningHighlightHue = 0,
			SplitToningHighlightSaturation = 0,
			SplitToningShadowHue = 0,
			SplitToningShadowSaturation = 0,
			ToneCurveName2012 = "Custom",
			ToneCurvePV2012 = {
				0,
				54,
				48,
				74,
				161,
				165,
				255,
				248,
			},
			ToneCurvePV2012Blue = {
				0,
				0,
				49,
				27,
				115,
				118,
				181,
				201,
				255,
				232,
			},
			ToneCurvePV2012Green = {
				0,
				27,
				29,
				39,
				123,
				116,
				166,
				174,
				214,
				229,
				255,
				255,
			},
			ToneCurvePV2012Red = {
				0,
				29,
				36,
				44,
				118,
				118,
				176,
				187,
				227,
				234,
				255,
				255,
			},
			Vibrance = 0,
			Whites2012 = 0,
		},
		uuid = "86DED2DC-F37B-4D72-95D9-9042E70B7255",
	},
	version = 0,
}
