data/VSCO_SONY/VSCO Film 03 Professional - Sony/SO - Polaroid 665 Negative.lrtemplate
s = {
	id = "2D004508-A1C6-43F1-856B-584213846FCC",
	internalName = "Polaroid 665 Negative 3",
	title = "SO - Polaroid 665 Negative",
	type = "Develop",
	value = {
		settings = {
			Blacks2012 = 0,
			BlueHue = 0,
			BlueSaturation = 0,
			CameraProfile = "Polaroid 665 Neg SO",
			Clarity2012 = 0,
			Contrast2012 = 0,
			ConvertToGrayscale = true,
			EnableCalibration = true,
			EnableDetail = true,
			EnableEffects = true,
			EnableGrayscaleMix = true,
			EnableSplitToning = true,
			GrainAmount = 8,
			GrainFrequency = 50,
			GrainSize = 60,
			GrayMixerAqua = 20,
			GrayMixerBlue = 30,
			GrayMixerGreen = -20,
			GrayMixerMagenta = 20,
			GrayMixerOrange = -10,
			GrayMixerPurple = 40,
			GrayMixerRed = 5,
			GrayMixerYellow = -20,
			GreenHue = 0,
			GreenSaturation = 0,
			Highlights2012 = -10,
			ParametricDarks = 0,
			ParametricHighlightSplit = 75,
			ParametricHighlights = 0,
			ParametricLights = 0,
			ParametricMidtoneSplit = 50,
			ParametricShadowSplit = 25,
			ParametricShadows = 0,
			ProcessVersion = "6.7",
			RedHue = 0,
			RedSaturation = 0,
			ShadowTint = 0,
			Shadows2012 = 10,
			SharpenDetail = 25,
			SharpenEdgeMasking = 0,
			SharpenRadius = 1,
			Sharpness = 25,
			SplitToningBalance = 0,
			SplitToningHighlightHue = 0,
			SplitToningHighlightSaturation = 0,
			SplitToningShadowHue = 0,
			SplitToningShadowSaturation = 0,
			ToneCurveName2012 = "Custom",
			ToneCurvePV2012 = {
				0,
				3,
				46,
				39,
				120,
				119,
				255,
				252,
			},
			ToneCurvePV2012Blue = {
				0,
				0,
				255,
				255,
			},
			ToneCurvePV2012Green = {
				0,
				0,
				255,
				255,
			},
			ToneCurvePV2012Red = {
				0,
				0,
				255,
				255,
			},
			Whites2012 = -5,
		},
		uuid = "29392F13-32CD-427E-9353-1E91C34DF12B",
	},
	version = 0,
}
