data/VSCO_SONY/VSCO Film 03 Professional - Sony/SO - Fuji FP-100c - -.lrtemplate
s = {
	id = "2B472E2C-EF86-44A6-A324-BF5F57832C3C",
	internalName = "Fuji FP-100c - -",
	title = "SO - Fuji FP-100c - -",
	type = "Develop",
	value = {
		settings = {
			Blacks2012 = 35,
			BlueHue = 0,
			BlueSaturation = 12,
			CameraProfile = "Fuji FP-100c SO",
			Clarity2012 = 0,
			Contrast2012 = 0,
			ConvertToGrayscale = false,
			EnableCalibration = true,
			EnableColorAdjustments = true,
			EnableDetail = true,
			EnableEffects = true,
			EnableSplitToning = true,
			GrainAmount = 0,
			GrainFrequency = 10,
			GrainSize = 10,
			GreenHue = -5,
			GreenSaturation = 0,
			Highlights2012 = -20,
			HueAdjustmentAqua = 25,
			HueAdjustmentBlue = 0,
			HueAdjustmentGreen = 0,
			HueAdjustmentMagenta = 0,
			HueAdjustmentOrange = 0,
			HueAdjustmentPurple = 30,
			HueAdjustmentRed = 15,
			HueAdjustmentYellow = -5,
			LuminanceAdjustmentAqua = -15,
			LuminanceAdjustmentBlue = -40,
			LuminanceAdjustmentGreen = -30,
			LuminanceAdjustmentMagenta = -20,
			LuminanceAdjustmentOrange = -10,
			LuminanceAdjustmentPurple = 0,
			LuminanceAdjustmentRed = -25,
			LuminanceAdjustmentYellow = -25,
			ParametricDarks = 0,
			ParametricHighlightSplit = 75,
			ParametricHighlights = 0,
			ParametricLights = 0,
			ParametricMidtoneSplit = 50,
			ParametricShadowSplit = 25,
			ParametricShadows = 0,
			ProcessVersion = "6.7",
			RedHue = 10,
			RedSaturation = -15,
			Saturation = -5,
			SaturationAdjustmentAqua = -20,
			SaturationAdjustmentBlue = -30,
			SaturationAdjustmentGreen = -30,
			SaturationAdjustmentMagenta = -45,
			SaturationAdjustmentOrange = -16,
			SaturationAdjustmentPurple = 0,
			SaturationAdjustmentRed = -15,
			SaturationAdjustmentYellow = 0,
			ShadowTint = 0,
			Shadows2012 = 25,
			SharpenDetail = 25,
			SharpenEdgeMasking = 0,
			SharpenRadius = 1,
			Sharpness = 25,
			SplitToningBalance = 0,
			SplitToningHighlightHue = 0,
			SplitToningHighlightSaturation = 0,
			SplitToningShadowHue = 0,
			SplitToningShadowSaturation = 0,
			ToneCurveName2012 = "Fuji FP-100c - -",
			ToneCurvePV2012 = {
				0,
				0,
				17,
				30,
				57,
				78,
				135,
				151,
				201,
				206,
				255,
				255,
			},
			ToneCurvePV2012Blue = {
				0,
				0,
				34,
				19,
				123,
				130,
				221,
				233,
				255,
				255,
			},
			ToneCurvePV2012Green = {
				0,
				0,
				39,
				21,
				122,
				129,
				220,
				234,
				255,
				255,
			},
			ToneCurvePV2012Red = {
				0,
				0,
				36,
				18,
				88,
				78,
				118,
				126,
				160,
				182,
				255,
				255,
			},
			Vibrance = 0,
			Whites2012 = -10,
		},
		uuid = "67072461-3747-4EF6-B6FD-78EED8E6B2D5",
	},
	version = 0,
}
