data/VSCO_SONY/VSCO Film 03 Professional - Sony/~SO - Fuji FP-100c Negative ++ Alt.lrtemplate
s = {
	id = "49C3E67B-BC18-48AE-B9CE-48EBD6F0971B",
	internalName = "Fuji FP-100c Neg Start ++ Alt 2",
	title = "SO - Fuji FP-100c Negative ++ Alt",
	type = "Develop",
	value = {
		settings = {
			Blacks2012 = -10,
			BlueHue = -15,
			BlueSaturation = 0,
			CameraProfile = "Fuji FP-100c Neg SO",
			Clarity2012 = 0,
			Contrast2012 = 0,
			ConvertToGrayscale = false,
			EnableCalibration = true,
			EnableColorAdjustments = true,
			EnableDetail = true,
			EnableEffects = true,
			EnableSplitToning = true,
			GrainAmount = 10,
			GrainFrequency = 100,
			GrainSize = 65,
			GreenHue = 0,
			GreenSaturation = 0,
			Highlights2012 = -10,
			HueAdjustmentAqua = 30,
			HueAdjustmentBlue = 0,
			HueAdjustmentGreen = 20,
			HueAdjustmentMagenta = 46,
			HueAdjustmentOrange = 0,
			HueAdjustmentPurple = 60,
			HueAdjustmentRed = 20,
			HueAdjustmentYellow = 0,
			LuminanceAdjustmentAqua = -40,
			LuminanceAdjustmentBlue = -40,
			LuminanceAdjustmentGreen = -15,
			LuminanceAdjustmentMagenta = 30,
			LuminanceAdjustmentOrange = -5,
			LuminanceAdjustmentPurple = 25,
			LuminanceAdjustmentRed = 0,
			LuminanceAdjustmentYellow = 0,
			ParametricDarks = 0,
			ParametricHighlightSplit = 75,
			ParametricHighlights = 0,
			ParametricLights = 0,
			ParametricMidtoneSplit = 44,
			ParametricShadowSplit = 15,
			ParametricShadows = 0,
			ProcessVersion = "6.7",
			RedHue = 25,
			RedSaturation = -15,
			Saturation = -15,
			SaturationAdjustmentAqua = -36,
			SaturationAdjustmentBlue = 0,
			SaturationAdjustmentGreen = -60,
			SaturationAdjustmentMagenta = -30,
			SaturationAdjustmentOrange = -10,
			SaturationAdjustmentPurple = -60,
			SaturationAdjustmentRed = -20,
			SaturationAdjustmentYellow = -10,
			ShadowTint = 0,
			Shadows2012 = 10,
			SharpenDetail = 25,
			SharpenEdgeMasking = 0,
			SharpenRadius = 1,
			Sharpness = 0,
			SplitToningBalance = 0,
			SplitToningHighlightHue = 0,
			SplitToningHighlightSaturation = 0,
			SplitToningShadowHue = 0,
			SplitToningShadowSaturation = 0,
			ToneCurveName2012 = "Custom",
			ToneCurvePV2012 = {
				0,
				52,
				49,
				70,
				158,
				149,
				227,
				225,
				255,
				253,
			},
			ToneCurvePV2012Blue = {
				0,
				18,
				30,
				37,
				74,
				78,
				101,
				113,
				146,
				153,
				208,
				192,
				255,
				222,
			},
			ToneCurvePV2012Green = {
				0,
				4,
				29,
				18,
				57,
				47,
				100,
				119,
				134,
				163,
				172,
				194,
				217,
				220,
				255,
				242,
			},
			ToneCurvePV2012Red = {
				0,
				20,
				38,
				27,
				67,
				56,
				98,
				121,
				170,
				199,
				255,
				255,
			},
			Vibrance = 0,
			Whites2012 = -10,
		},
		uuid = "32DBBF60-675F-46E4-9B33-E4270774BA4E",
	},
	version = 0,
}
