data/VSCO_SONY/VSCO Film 05 Night-Tungsten - Sony/SO - Agfa Vista 800 Night-Tungsten.lrtemplate
s = {
	id = "CAA9397D-A74E-4950-898F-094BD4DFB515",
	internalName = "Agfa Vista 800 Night",
	title = "SO - Agfa Vista 800 Night/Tungsten",
	type = "Develop",
	value = {
		settings = {
			Blacks2012 = 15,
			BlueHue = -5,
			BlueSaturation = -30,
			CameraProfile = "Agfa Vista 800 - SO",
			Clarity2012 = -10,
			Contrast2012 = 0,
			ConvertToGrayscale = false,
			EnableCalibration = true,
			EnableColorAdjustments = true,
			EnableDetail = true,
			EnableEffects = true,
			EnableSplitToning = true,
			GrainAmount = 30,
			GrainFrequency = 85,
			GrainSize = 25,
			GreenHue = 40,
			GreenSaturation = -45,
			Highlights2012 = -40,
			HueAdjustmentAqua = 10,
			HueAdjustmentBlue = -10,
			HueAdjustmentGreen = 0,
			HueAdjustmentMagenta = 5,
			HueAdjustmentOrange = 10,
			HueAdjustmentPurple = 0,
			HueAdjustmentRed = 15,
			HueAdjustmentYellow = 5,
			LuminanceAdjustmentAqua = 15,
			LuminanceAdjustmentBlue = -25,
			LuminanceAdjustmentGreen = 0,
			LuminanceAdjustmentMagenta = 10,
			LuminanceAdjustmentOrange = 5,
			LuminanceAdjustmentPurple = -5,
			LuminanceAdjustmentRed = 0,
			LuminanceAdjustmentYellow = 10,
			ParametricDarks = 10,
			ParametricHighlightSplit = 75,
			ParametricHighlights = 0,
			ParametricLights = 10,
			ParametricMidtoneSplit = 48,
			ParametricShadowSplit = 20,
			ParametricShadows = 0,
			ProcessVersion = "6.7",
			RedHue = 15,
			RedSaturation = 60,
			Saturation = -10,
			SaturationAdjustmentAqua = -35,
			SaturationAdjustmentBlue = -25,
			SaturationAdjustmentGreen = -30,
			SaturationAdjustmentMagenta = -40,
			SaturationAdjustmentOrange = -5,
			SaturationAdjustmentPurple = -45,
			SaturationAdjustmentRed = -25,
			SaturationAdjustmentYellow = -5,
			ShadowTint = -4,
			Shadows2012 = 30,
			SharpenDetail = 25,
			SharpenEdgeMasking = 0,
			SharpenRadius = 1,
			Sharpness = 0,
			SplitToningBalance = 75,
			SplitToningHighlightHue = 0,
			SplitToningHighlightSaturation = 0,
			SplitToningShadowHue = 240,
			SplitToningShadowSaturation = 10,
			ToneCurveName2012 = "Custom",
			ToneCurvePV2012 = {
				0,
				32,
				36,
				40,
				79,
				75,
				133,
				133,
				185,
				189,
				255,
				245,
			},
			ToneCurvePV2012Blue = {
				0,
				0,
				22,
				15,
				67,
				57,
				113,
				121,
				174,
				196,
				255,
				251,
			},
			ToneCurvePV2012Green = {
				0,
				0,
				32,
				10,
				80,
				65,
				114,
				120,
				173,
				198,
				255,
				255,
			},
			ToneCurvePV2012Red = {
				0,
				6,
				31,
				11,
				83,
				62,
				117,
				121,
				174,
				196,
				255,
				255,
			},
			Vibrance = 0,
			Whites2012 = -20,
		},
		uuid = "0C057A39-EADC-4E0A-991F-8D283840DB2D",
	},
	version = 0,
}
