data/VSCO_SONY/VSCO Film 05 Night-Tungsten - Sony/~SO - Kodak BW400CN Night-Tungsten +.lrtemplate
s = {
	id = "06059603-A3C8-4983-A3F2-D925F3BABDDB",
	internalName = "Kodak BW400CN Night +",
	title = "SO - Kodak BW400CN Night/Tungsten +",
	type = "Develop",
	value = {
		settings = {
			Blacks2012 = 25,
			BlueHue = 0,
			BlueSaturation = -30,
			CameraProfile = "Kodak BW400CN - SO",
			Clarity2012 = -5,
			Contrast2012 = 0,
			ConvertToGrayscale = true,
			EnableCalibration = true,
			EnableDetail = true,
			EnableEffects = true,
			EnableGrayscaleMix = true,
			EnableSplitToning = true,
			GrainAmount = 45,
			GrainFrequency = 60,
			GrainSize = 20,
			GrayMixerAqua = -20,
			GrayMixerBlue = -20,
			GrayMixerGreen = 15,
			GrayMixerMagenta = 5,
			GrayMixerOrange = -15,
			GrayMixerPurple = 16,
			GrayMixerRed = 20,
			GrayMixerYellow = 0,
			GreenHue = 0,
			GreenSaturation = -75,
			Highlights2012 = -25,
			ParametricDarks = 0,
			ParametricHighlightSplit = 75,
			ParametricHighlights = 0,
			ParametricLights = 0,
			ParametricMidtoneSplit = 60,
			ParametricShadowSplit = 14,
			ParametricShadows = 0,
			ProcessVersion = "6.7",
			RedHue = 0,
			RedSaturation = -30,
			ShadowTint = 0,
			Shadows2012 = 15,
			SharpenDetail = 25,
			SharpenEdgeMasking = 0,
			SharpenRadius = 1,
			Sharpness = 25,
			SplitToningBalance = 0,
			SplitToningHighlightHue = 0,
			SplitToningHighlightSaturation = 0,
			SplitToningShadowHue = 0,
			SplitToningShadowSaturation = 0,
			ToneCurveName2012 = "Custom",
			ToneCurvePV2012 = {
				0,
				13,
				27,
				28,
				116,
				116,
				255,
				248,
			},
			ToneCurvePV2012Blue = {
				0,
				0,
				255,
				255,
			},
			ToneCurvePV2012Green = {
				0,
				0,
				255,
				255,
			},
			ToneCurvePV2012Red = {
				0,
				0,
				255,
				255,
			},
			Whites2012 = -20,
		},
		uuid = "8582F146-0959-434A-8F41-4CB359D37849",
	},
	version = 0,
}
