data/VSCO_SONY/VSCO Film 05 Night-Tungsten - Sony/~SO - Agfa Vista 400 Night-Tungsten.lrtemplate
s = {
	id = "C990C209-8B24-48DE-B987-75C5EB879796",
	internalName = "Agfa Vista 400 Night",
	title = "SO - Agfa Vista 400 Night/Tungsten",
	type = "Develop",
	value = {
		settings = {
			Blacks2012 = 15,
			BlueHue = -5,
			BlueSaturation = -15,
			CameraProfile = "Agfa Vista 400 - SO",
			Clarity2012 = -10,
			Contrast2012 = 0,
			ConvertToGrayscale = false,
			EnableCalibration = true,
			EnableColorAdjustments = true,
			EnableDetail = true,
			EnableEffects = true,
			EnableSplitToning = true,
			GrainAmount = 30,
			GrainFrequency = 85,
			GrainSize = 35,
			GreenHue = 50,
			GreenSaturation = -15,
			Highlights2012 = -40,
			HueAdjustmentAqua = 10,
			HueAdjustmentBlue = 0,
			HueAdjustmentGreen = 5,
			HueAdjustmentMagenta = 30,
			HueAdjustmentOrange = -5,
			HueAdjustmentPurple = 20,
			HueAdjustmentRed = 25,
			HueAdjustmentYellow = 10,
			LuminanceAdjustmentAqua = 15,
			LuminanceAdjustmentBlue = -25,
			LuminanceAdjustmentGreen = 20,
			LuminanceAdjustmentMagenta = 0,
			LuminanceAdjustmentOrange = -5,
			LuminanceAdjustmentPurple = -15,
			LuminanceAdjustmentRed = -20,
			LuminanceAdjustmentYellow = 10,
			ParametricDarks = 10,
			ParametricHighlightSplit = 75,
			ParametricHighlights = 0,
			ParametricLights = 10,
			ParametricMidtoneSplit = 48,
			ParametricShadowSplit = 20,
			ParametricShadows = 0,
			ProcessVersion = "6.7",
			RedHue = 25,
			RedSaturation = 35,
			Saturation = 0,
			SaturationAdjustmentAqua = -35,
			SaturationAdjustmentBlue = -25,
			SaturationAdjustmentGreen = -30,
			SaturationAdjustmentMagenta = -30,
			SaturationAdjustmentOrange = -15,
			SaturationAdjustmentPurple = -45,
			SaturationAdjustmentRed = 0,
			SaturationAdjustmentYellow = -5,
			ShadowTint = -4,
			Shadows2012 = 20,
			SharpenDetail = 25,
			SharpenEdgeMasking = 0,
			SharpenRadius = 1,
			Sharpness = 0,
			SplitToningBalance = 0,
			SplitToningHighlightHue = 0,
			SplitToningHighlightSaturation = 0,
			SplitToningShadowHue = 0,
			SplitToningShadowSaturation = 0,
			ToneCurveName2012 = "Vista 100 N/T",
			ToneCurvePV2012 = {
				0,
				19,
				22,
				30,
				75,
				75,
				127,
				131,
				188,
				189,
				255,
				245,
			},
			ToneCurvePV2012Blue = {
				0,
				14,
				57,
				54,
				114,
				120,
				173,
				188,
				255,
				255,
			},
			ToneCurvePV2012Green = {
				0,
				0,
				33,
				12,
				79,
				58,
				114,
				120,
				177,
				202,
				255,
				255,
			},
			ToneCurvePV2012Red = {
				0,
				0,
				35,
				11,
				80,
				62,
				114,
				121,
				175,
				196,
				255,
				255,
			},
			Vibrance = 0,
			Whites2012 = -20,
		},
		uuid = "01099374-8C08-440E-A4FE-4418619D2872",
	},
	version = 0,
}
