data/VSCO_CANON/VSCO Film 01 - Canon/~C - Kodak TRI-X 400 +_.lrtemplate
s = {
	id = "909FAABE-7544-4AE5-841A-C8910376CB58",
	internalName = "C - Kodak TRI-X 400 2 +",
	title = "C - Kodak TRI-X 400 + ",
	type = "Develop",
	value = {
		settings = {
			Blacks2012 = 25,
			BlueHue = 0,
			BlueSaturation = 0,
			CameraProfile = "Kodak TRI-X 400 + 2C",
			Clarity2012 = 0,
			Contrast2012 = 0,
			ConvertToGrayscale = true,
			EnableCalibration = true,
			EnableDetail = true,
			EnableEffects = true,
			EnableGrayscaleMix = true,
			EnableSplitToning = true,
			GrainAmount = 55,
			GrainFrequency = 45,
			GrainSize = 20,
			GrayMixerAqua = 25,
			GrayMixerBlue = 5,
			GrayMixerGreen = -10,
			GrayMixerMagenta = 30,
			GrayMixerOrange = -15,
			GrayMixerPurple = 30,
			GrayMixerRed = 0,
			GrayMixerYellow = 0,
			GreenHue = 0,
			GreenSaturation = 0,
			Highlights2012 = -20,
			ParametricDarks = 0,
			ParametricHighlightSplit = 75,
			ParametricHighlights = 0,
			ParametricLights = 0,
			ParametricMidtoneSplit = 50,
			ParametricShadowSplit = 25,
			ParametricShadows = 0,
			ProcessVersion = "6.7",
			RedHue = 0,
			RedSaturation = 0,
			ShadowTint = 0,
			Shadows2012 = 20,
			SharpenDetail = 25,
			SharpenEdgeMasking = 0,
			SharpenRadius = 1.5,
			Sharpness = 20,
			SplitToningBalance = 0,
			SplitToningHighlightHue = 0,
			SplitToningHighlightSaturation = 0,
			SplitToningShadowHue = 0,
			SplitToningShadowSaturation = 0,
			ToneCurveName2012 = "Custom",
			ToneCurvePV2012 = {
				0,
				14,
				255,
				253,
			},
			ToneCurvePV2012Blue = {
				0,
				0,
				255,
				255,
			},
			ToneCurvePV2012Green = {
				0,
				0,
				255,
				255,
			},
			ToneCurvePV2012Red = {
				0,
				0,
				255,
				255,
			},
			Whites2012 = 0,
		},
		uuid = "26FC81E6-6D6A-4B85-A8CC-0C9176885611",
	},
	version = 0,
}
