data/VSCO_CANON/VSCO Film 01 - Canon/~C - Fuji 400H +_.lrtemplate
s = {
	id = "5976D011-0181-49C3-90C2-0AF544745C31",
	internalName = "C - Fuji 400H 2 +",
	title = "C - Fuji 400H + ",
	type = "Develop",
	value = {
		settings = {
			Blacks2012 = 25,
			BlueHue = 0,
			BlueSaturation = 0,
			CameraProfile = "Fuji 400H 2C",
			Clarity2012 = 0,
			Contrast2012 = 0,
			ConvertToGrayscale = false,
			EnableCalibration = true,
			EnableColorAdjustments = true,
			EnableDetail = true,
			EnableEffects = true,
			EnableGradientBasedCorrections = true,
			EnableSplitToning = true,
			GrainAmount = 30,
			GrainFrequency = 35,
			GrainSize = 30,
			GreenHue = 0,
			GreenSaturation = 0,
			Highlights2012 = -10,
			HueAdjustmentAqua = -15,
			HueAdjustmentBlue = -5,
			HueAdjustmentGreen = 20,
			HueAdjustmentMagenta = 30,
			HueAdjustmentOrange = 5,
			HueAdjustmentPurple = 20,
			HueAdjustmentRed = 0,
			HueAdjustmentYellow = 12,
			LuminanceAdjustmentAqua = 0,
			LuminanceAdjustmentBlue = -10,
			LuminanceAdjustmentGreen = -20,
			LuminanceAdjustmentMagenta = 0,
			LuminanceAdjustmentOrange = 0,
			LuminanceAdjustmentPurple = -25,
			LuminanceAdjustmentRed = 10,
			LuminanceAdjustmentYellow = 5,
			ParametricDarks = 0,
			ParametricHighlightSplit = 75,
			ParametricHighlights = 0,
			ParametricLights = 0,
			ParametricMidtoneSplit = 50,
			ParametricShadowSplit = 25,
			ParametricShadows = 0,
			ProcessVersion = "6.7",
			RedHue = 0,
			RedSaturation = 5,
			Saturation = 5,
			SaturationAdjustmentAqua = -15,
			SaturationAdjustmentBlue = -15,
			SaturationAdjustmentGreen = -40,
			SaturationAdjustmentMagenta = -10,
			SaturationAdjustmentOrange = 5,
			SaturationAdjustmentPurple = -30,
			SaturationAdjustmentRed = -5,
			SaturationAdjustmentYellow = -10,
			ShadowTint = -6,
			Shadows2012 = 15,
			SharpenDetail = 25,
			SharpenEdgeMasking = 0,
			SharpenRadius = 1,
			Sharpness = 25,
			SplitToningBalance = 90,
			SplitToningHighlightHue = 55,
			SplitToningHighlightSaturation = 3,
			SplitToningShadowHue = 55,
			SplitToningShadowSaturation = 15,
			ToneCurveName2012 = "Custom",
			ToneCurvePV2012 = {
				1,
				21,
				65,
				73,
				255,
				253,
			},
			ToneCurvePV2012Blue = {
				0,
				0,
				30,
				17,
				122,
				126,
				199,
				202,
				255,
				252,
			},
			ToneCurvePV2012Green = {
				0,
				10,
				34,
				28,
				120,
				126,
				199,
				201,
				255,
				253,
			},
			ToneCurvePV2012Red = {
				0,
				6,
				33,
				28,
				120,
				126,
				199,
				203,
				255,
				255,
			},
			Vibrance = 0,
			Whites2012 = -5,
			orientation = "AB",
		},
		uuid = "BCA5E1FB-9E03-42D4-B8F3-1C5E31FA6CF5",
	},
	version = 0,
}
