data/VSCO_CANON/VSCO Film 01 - Canon/~C - Kodak Portra 400 +_.lrtemplate
s = {
	id = "25E5ABB7-A4C2-4B5F-A07D-935A87704BD4",
	internalName = "C Kodak Portra 400 2 +",
	title = "C - Kodak Portra 400 + ",
	type = "Develop",
	value = {
		settings = {
			Blacks2012 = 25,
			BlueHue = 0,
			BlueSaturation = 0,
			CameraProfile = "Kodak Portra 400 2C",
			Clarity2012 = 0,
			Contrast2012 = 0,
			ConvertToGrayscale = false,
			EnableCalibration = true,
			EnableColorAdjustments = true,
			EnableDetail = true,
			EnableEffects = true,
			EnableSplitToning = true,
			GrainAmount = 30,
			GrainFrequency = 40,
			GrainSize = 30,
			GreenHue = 5,
			GreenSaturation = 0,
			Highlights2012 = -10,
			HueAdjustmentAqua = 15,
			HueAdjustmentBlue = -5,
			HueAdjustmentGreen = 18,
			HueAdjustmentMagenta = 15,
			HueAdjustmentOrange = 6,
			HueAdjustmentPurple = 0,
			HueAdjustmentRed = 10,
			HueAdjustmentYellow = 0,
			LuminanceAdjustmentAqua = 20,
			LuminanceAdjustmentBlue = -15,
			LuminanceAdjustmentGreen = -20,
			LuminanceAdjustmentMagenta = 10,
			LuminanceAdjustmentOrange = -5,
			LuminanceAdjustmentPurple = 15,
			LuminanceAdjustmentRed = 0,
			LuminanceAdjustmentYellow = -15,
			ParametricDarks = 0,
			ParametricHighlightSplit = 75,
			ParametricHighlights = 0,
			ParametricLights = 0,
			ParametricMidtoneSplit = 50,
			ParametricShadowSplit = 25,
			ParametricShadows = 0,
			ProcessVersion = "6.7",
			RedHue = 5,
			RedSaturation = -5,
			Saturation = 5,
			SaturationAdjustmentAqua = -15,
			SaturationAdjustmentBlue = -10,
			SaturationAdjustmentGreen = -30,
			SaturationAdjustmentMagenta = -20,
			SaturationAdjustmentOrange = 2,
			SaturationAdjustmentPurple = -25,
			SaturationAdjustmentRed = -5,
			SaturationAdjustmentYellow = -15,
			ShadowTint = -2,
			Shadows2012 = 15,
			SharpenDetail = 25,
			SharpenEdgeMasking = 0,
			SharpenRadius = 1,
			Sharpness = 25,
			SplitToningBalance = 0,
			SplitToningHighlightHue = 0,
			SplitToningHighlightSaturation = 0,
			SplitToningShadowHue = 0,
			SplitToningShadowSaturation = 0,
			ToneCurveName2012 = "Custom",
			ToneCurvePV2012 = {
				0,
				19,
				46,
				54,
				121,
				125,
				255,
				252,
			},
			ToneCurvePV2012Blue = {
				0,
				0,
				36,
				17,
				109,
				120,
				183,
				194,
				255,
				255,
			},
			ToneCurvePV2012Green = {
				0,
				1,
				31,
				19,
				109,
				120,
				185,
				196,
				255,
				255,
			},
			ToneCurvePV2012Red = {
				0,
				0,
				38,
				22,
				111,
				122,
				183,
				195,
				255,
				255,
			},
			Vibrance = 0,
			Whites2012 = -10,
		},
		uuid = "EB787AA4-74B5-4152-814F-4BE30DF380AB",
	},
	version = 0,
}
