data/VSCO_CANON/VSCO Film 01 - Canon/~C - Fuji 400H -_.lrtemplate
s = {
	id = "B0791EB9-3CB2-4B4D-A08E-71482C315CB2",
	internalName = "C - Fuji 400H 2 -",
	title = "C - Fuji 400H - ",
	type = "Develop",
	value = {
		settings = {
			Blacks2012 = 30,
			BlueHue = 0,
			BlueSaturation = 0,
			CameraProfile = "Fuji 400H 2C",
			Clarity2012 = 0,
			Contrast2012 = 0,
			ConvertToGrayscale = false,
			EnableCalibration = true,
			EnableColorAdjustments = true,
			EnableDetail = true,
			EnableEffects = true,
			EnableGradientBasedCorrections = true,
			EnableSplitToning = true,
			GrainAmount = 20,
			GrainFrequency = 35,
			GrainSize = 30,
			GreenHue = 0,
			GreenSaturation = 0,
			Highlights2012 = -15,
			HueAdjustmentAqua = -15,
			HueAdjustmentBlue = -5,
			HueAdjustmentGreen = 20,
			HueAdjustmentMagenta = 30,
			HueAdjustmentOrange = 8,
			HueAdjustmentPurple = 20,
			HueAdjustmentRed = 0,
			HueAdjustmentYellow = 12,
			LuminanceAdjustmentAqua = 0,
			LuminanceAdjustmentBlue = -10,
			LuminanceAdjustmentGreen = -20,
			LuminanceAdjustmentMagenta = 0,
			LuminanceAdjustmentOrange = 0,
			LuminanceAdjustmentPurple = -25,
			LuminanceAdjustmentRed = 10,
			LuminanceAdjustmentYellow = 5,
			ParametricDarks = 0,
			ParametricHighlightSplit = 75,
			ParametricHighlights = 0,
			ParametricLights = 0,
			ParametricMidtoneSplit = 50,
			ParametricShadowSplit = 25,
			ParametricShadows = 0,
			ProcessVersion = "6.7",
			RedHue = 0,
			RedSaturation = 5,
			Saturation = 5,
			SaturationAdjustmentAqua = -15,
			SaturationAdjustmentBlue = -15,
			SaturationAdjustmentGreen = -40,
			SaturationAdjustmentMagenta = -10,
			SaturationAdjustmentOrange = 5,
			SaturationAdjustmentPurple = -30,
			SaturationAdjustmentRed = -5,
			SaturationAdjustmentYellow = -10,
			ShadowTint = -2,
			Shadows2012 = 15,
			SharpenDetail = 25,
			SharpenEdgeMasking = 0,
			SharpenRadius = 1,
			Sharpness = 25,
			SplitToningBalance = 90,
			SplitToningHighlightHue = 55,
			SplitToningHighlightSaturation = 0,
			SplitToningShadowHue = 55,
			SplitToningShadowSaturation = 0,
			ToneCurveName2012 = "Custom",
			ToneCurvePV2012 = {
				0,
				0,
				49,
				56,
				124,
				123,
				196,
				188,
				254,
				255,
			},
			ToneCurvePV2012Blue = {
				0,
				0,
				31,
				20,
				122,
				126,
				196,
				201,
				255,
				255,
			},
			ToneCurvePV2012Green = {
				0,
				0,
				33,
				25,
				119,
				126,
				199,
				201,
				255,
				255,
			},
			ToneCurvePV2012Red = {
				0,
				0,
				33,
				23,
				121,
				126,
				199,
				203,
				255,
				255,
			},
			Vibrance = 0,
			Whites2012 = -15,
			orientation = "AB",
		},
		uuid = "308B2DC4-679E-44A6-823C-9F4D456CF867",
	},
	version = 0,
}
