data/VSCO_CANON/VSCO Film 01 - Canon/~C - Fuji 800Z +_.lrtemplate
s = {
	id = "ED61D01B-2E80-47AE-AC4B-41675FC01BFF",
	internalName = "C - Fuji 800Z 2 +",
	title = "C - Fuji 800Z + ",
	type = "Develop",
	value = {
		settings = {
			Blacks2012 = 25,
			BlueHue = 0,
			BlueSaturation = 0,
			CameraProfile = "Fuji 800Z 2C",
			Clarity2012 = 0,
			Contrast2012 = 0,
			ConvertToGrayscale = false,
			EnableCalibration = true,
			EnableColorAdjustments = true,
			EnableDetail = true,
			EnableEffects = true,
			EnableSplitToning = true,
			GrainAmount = 45,
			GrainFrequency = 45,
			GrainSize = 40,
			GreenHue = 5,
			GreenSaturation = 0,
			Highlights2012 = -10,
			HueAdjustmentAqua = -12,
			HueAdjustmentBlue = 10,
			HueAdjustmentGreen = 0,
			HueAdjustmentMagenta = 25,
			HueAdjustmentOrange = 4,
			HueAdjustmentPurple = 25,
			HueAdjustmentRed = 0,
			HueAdjustmentYellow = 15,
			LuminanceAdjustmentAqua = 0,
			LuminanceAdjustmentBlue = -8,
			LuminanceAdjustmentGreen = -8,
			LuminanceAdjustmentMagenta = 20,
			LuminanceAdjustmentOrange = -10,
			LuminanceAdjustmentPurple = 0,
			LuminanceAdjustmentRed = 0,
			LuminanceAdjustmentYellow = 10,
			ParametricDarks = 0,
			ParametricHighlightSplit = 75,
			ParametricHighlights = 0,
			ParametricLights = 0,
			ParametricMidtoneSplit = 50,
			ParametricShadowSplit = 25,
			ParametricShadows = 0,
			ProcessVersion = "6.7",
			RedHue = 0,
			RedSaturation = 0,
			Saturation = 0,
			SaturationAdjustmentAqua = 0,
			SaturationAdjustmentBlue = -10,
			SaturationAdjustmentGreen = -30,
			SaturationAdjustmentMagenta = 0,
			SaturationAdjustmentOrange = 0,
			SaturationAdjustmentPurple = -10,
			SaturationAdjustmentRed = -10,
			SaturationAdjustmentYellow = -15,
			ShadowTint = -4,
			Shadows2012 = 10,
			SharpenDetail = 25,
			SharpenEdgeMasking = 0,
			SharpenRadius = 1,
			Sharpness = 25,
			SplitToningBalance = 0,
			SplitToningHighlightHue = 55,
			SplitToningHighlightSaturation = 3,
			SplitToningShadowHue = 60,
			SplitToningShadowSaturation = 5,
			ToneCurveName2012 = "Custom",
			ToneCurvePV2012 = {
				0,
				24,
				94,
				104,
				255,
				250,
			},
			ToneCurvePV2012Blue = {
				0,
				0,
				52,
				35,
				122,
				127,
				188,
				203,
				255,
				255,
			},
			ToneCurvePV2012Green = {
				0,
				8,
				49,
				37,
				120,
				129,
				184,
				198,
				255,
				255,
			},
			ToneCurvePV2012Red = {
				0,
				9,
				48,
				37,
				122,
				130,
				170,
				184,
				255,
				253,
			},
			Vibrance = 0,
			Whites2012 = -15,
		},
		uuid = "CD8D2CF2-E1AC-4AC5-B09E-B5085A7038F8",
	},
	version = 0,
}
