data/VSCO_NIKON/VSCO Film 03 Consumer - Nikon/N - PX-100UV+ Cold +++.lrtemplate
s = {
	id = "12AF8968-C6A6-4744-AEC7-20A301B4E5F7",
	internalName = "PX-100UV+ Cold +++",
	title = "N - PX-100UV+ Cold +++",
	type = "Develop",
	value = {
		settings = {
			Blacks2012 = 0,
			BlueHue = 0,
			BlueSaturation = 0,
			CameraProfile = "PX-100UV+ N",
			Clarity2012 = -15,
			Contrast2012 = 0,
			ConvertToGrayscale = true,
			EnableCalibration = true,
			EnableDetail = true,
			EnableEffects = true,
			EnableGrayscaleMix = true,
			EnableSplitToning = true,
			GrainAmount = 15,
			GrainFrequency = 70,
			GrainSize = 75,
			GrayMixerAqua = -12,
			GrayMixerBlue = 25,
			GrayMixerGreen = -25,
			GrayMixerMagenta = 30,
			GrayMixerOrange = -12,
			GrayMixerPurple = 40,
			GrayMixerRed = 20,
			GrayMixerYellow = -20,
			GreenHue = 0,
			GreenSaturation = 0,
			Highlights2012 = -10,
			ParametricDarks = 0,
			ParametricHighlightSplit = 75,
			ParametricHighlights = 0,
			ParametricLights = 0,
			ParametricMidtoneSplit = 50,
			ParametricShadowSplit = 25,
			ParametricShadows = 0,
			ProcessVersion = "6.7",
			RedHue = 0,
			RedSaturation = 0,
			ShadowTint = 0,
			Shadows2012 = 10,
			SharpenDetail = 25,
			SharpenEdgeMasking = 0,
			SharpenRadius = 1,
			Sharpness = 0,
			SplitToningBalance = 0,
			SplitToningHighlightHue = 0,
			SplitToningHighlightSaturation = 0,
			SplitToningShadowHue = 0,
			SplitToningShadowSaturation = 0,
			ToneCurveName2012 = "Custom",
			ToneCurvePV2012 = {
				0,
				104,
				45,
				108,
				127,
				140,
				209,
				194,
				255,
				210,
			},
			ToneCurvePV2012Blue = {
				0,
				0,
				133,
				129,
				255,
				207,
			},
			ToneCurvePV2012Green = {
				0,
				0,
				255,
				255,
			},
			ToneCurvePV2012Red = {
				0,
				0,
				42,
				39,
				122,
				119,
				193,
				191,
				255,
				255,
			},
			Whites2012 = 0,
		},
		uuid = "CE92DC24-A8AB-47DA-8571-61B62F64B562",
	},
	version = 0,
}
