data/VSCO_NIKON/VSCO Film 03 Consumer - Nikon/N - PX-680 Cold.lrtemplate
s = {
	id = "1D9B4E8C-ABDD-4C4B-8583-4D67D028C671",
	internalName = "PX-680 Start Cold ++",
	title = "N - PX-680 Cold",
	type = "Develop",
	value = {
		settings = {
			Blacks2012 = -50,
			BlueHue = -10,
			BlueSaturation = -15,
			CameraProfile = "PX-680 N",
			Clarity2012 = -20,
			Contrast2012 = 0,
			ConvertToGrayscale = false,
			EnableCalibration = true,
			EnableColorAdjustments = true,
			EnableDetail = true,
			EnableEffects = true,
			EnableSplitToning = true,
			GrainAmount = 25,
			GrainFrequency = 45,
			GrainSize = 50,
			GreenHue = -10,
			GreenSaturation = 0,
			Highlights2012 = -15,
			HueAdjustmentAqua = 0,
			HueAdjustmentBlue = -15,
			HueAdjustmentGreen = 25,
			HueAdjustmentMagenta = 25,
			HueAdjustmentOrange = 0,
			HueAdjustmentPurple = 25,
			HueAdjustmentRed = 30,
			HueAdjustmentYellow = 12,
			LuminanceAdjustmentAqua = -45,
			LuminanceAdjustmentBlue = -25,
			LuminanceAdjustmentGreen = -20,
			LuminanceAdjustmentMagenta = 10,
			LuminanceAdjustmentOrange = -5,
			LuminanceAdjustmentPurple = 30,
			LuminanceAdjustmentRed = 16,
			LuminanceAdjustmentYellow = 0,
			ParametricDarks = 0,
			ParametricHighlightSplit = 75,
			ParametricHighlights = 0,
			ParametricLights = 0,
			ParametricMidtoneSplit = 60,
			ParametricShadowSplit = 14,
			ParametricShadows = 0,
			ProcessVersion = "6.7",
			RedHue = 20,
			RedSaturation = -5,
			Saturation = -20,
			SaturationAdjustmentAqua = -25,
			SaturationAdjustmentBlue = -25,
			SaturationAdjustmentGreen = -40,
			SaturationAdjustmentMagenta = -40,
			SaturationAdjustmentOrange = -15,
			SaturationAdjustmentPurple = -80,
			SaturationAdjustmentRed = -30,
			SaturationAdjustmentYellow = -25,
			ShadowTint = 0,
			Shadows2012 = 15,
			SharpenDetail = 25,
			SharpenEdgeMasking = 0,
			SharpenRadius = 1,
			Sharpness = 0,
			SplitToningBalance = 0,
			SplitToningHighlightHue = 0,
			SplitToningHighlightSaturation = 0,
			SplitToningShadowHue = 0,
			SplitToningShadowSaturation = 0,
			ToneCurveName2012 = "Custom",
			ToneCurvePV2012 = {
				0,
				58,
				41,
				65,
				99,
				121,
				179,
				184,
				255,
				255,
			},
			ToneCurvePV2012Blue = {
				0,
				27,
				37,
				45,
				104,
				110,
				210,
				191,
				255,
				220,
			},
			ToneCurvePV2012Green = {
				0,
				10,
				42,
				36,
				104,
				118,
				179,
				197,
				255,
				239,
			},
			ToneCurvePV2012Red = {
				0,
				0,
				41,
				30,
				105,
				119,
				175,
				191,
				255,
				232,
			},
			Vibrance = 0,
			Whites2012 = -10,
		},
		uuid = "05E774DD-FEF8-438A-B58A-4A763CD68975",
	},
	version = 0,
}
