data/VSCO_NIKON/VSCO Film 03 Consumer - Nikon/N - PX-70 Warm -.lrtemplate
s = {
	id = "CF92C874-4465-4464-A029-E3659EB2ED47",
	internalName = "PX-70 Start Warm -",
	title = "N - PX-70 Warm -",
	type = "Develop",
	value = {
		settings = {
			Blacks2012 = -10,
			BlueHue = -10,
			BlueSaturation = -15,
			CameraProfile = "PX-70 N",
			Clarity2012 = -10,
			Contrast2012 = 0,
			ConvertToGrayscale = false,
			EnableCalibration = true,
			EnableColorAdjustments = true,
			EnableDetail = true,
			EnableEffects = true,
			EnableSplitToning = true,
			GrainAmount = 15,
			GrainFrequency = 35,
			GrainSize = 40,
			GreenHue = 0,
			GreenSaturation = 0,
			Highlights2012 = -20,
			HueAdjustmentAqua = 0,
			HueAdjustmentBlue = -15,
			HueAdjustmentGreen = 20,
			HueAdjustmentMagenta = 25,
			HueAdjustmentOrange = 0,
			HueAdjustmentPurple = 25,
			HueAdjustmentRed = 30,
			HueAdjustmentYellow = 0,
			LuminanceAdjustmentAqua = -5,
			LuminanceAdjustmentBlue = -15,
			LuminanceAdjustmentGreen = 0,
			LuminanceAdjustmentMagenta = 10,
			LuminanceAdjustmentOrange = -5,
			LuminanceAdjustmentPurple = 30,
			LuminanceAdjustmentRed = 16,
			LuminanceAdjustmentYellow = 0,
			ParametricDarks = 0,
			ParametricHighlightSplit = 75,
			ParametricHighlights = 0,
			ParametricLights = 0,
			ParametricMidtoneSplit = 60,
			ParametricShadowSplit = 14,
			ParametricShadows = 0,
			ProcessVersion = "6.7",
			RedHue = 35,
			RedSaturation = -5,
			Saturation = -15,
			SaturationAdjustmentAqua = -25,
			SaturationAdjustmentBlue = -25,
			SaturationAdjustmentGreen = -40,
			SaturationAdjustmentMagenta = -40,
			SaturationAdjustmentOrange = -12,
			SaturationAdjustmentPurple = -80,
			SaturationAdjustmentRed = -30,
			SaturationAdjustmentYellow = -20,
			ShadowTint = 0,
			Shadows2012 = 0,
			SharpenDetail = 25,
			SharpenEdgeMasking = 0,
			SharpenRadius = 1,
			Sharpness = 10,
			SplitToningBalance = 0,
			SplitToningHighlightHue = 0,
			SplitToningHighlightSaturation = 0,
			SplitToningShadowHue = 0,
			SplitToningShadowSaturation = 0,
			ToneCurveName2012 = "Custom",
			ToneCurvePV2012 = {
				0,
				24,
				22,
				42,
				49,
				63,
				119,
				135,
				199,
				206,
				255,
				242,
			},
			ToneCurvePV2012Blue = {
				0,
				0,
				39,
				32,
				119,
				113,
				191,
				160,
				228,
				188,
				255,
				227,
			},
			ToneCurvePV2012Green = {
				0,
				16,
				48,
				36,
				97,
				120,
				172,
				203,
				226,
				237,
				255,
				255,
			},
			ToneCurvePV2012Red = {
				0,
				0,
				47,
				36,
				94,
				125,
				178,
				209,
				255,
				246,
			},
			Vibrance = 0,
			Whites2012 = -25,
		},
		uuid = "7EDEC56D-49F7-4EEA-8DE6-405C4641859A",
	},
	version = 0,
}
