data/VSCO_SONY/VSCO Film 04 - Sony/SO - Fuji Fortia SP Portrait.lrtemplate
s = {
	id = "352CF1B2-E702-48B8-82C7-30706829D8D3",
	internalName = "Fuji Fortia SP Portrait",
	title = "SO - Fuji Fortia SP Portrait",
	type = "Develop",
	value = {
		settings = {
			Blacks2012 = 15,
			BlueHue = 0,
			BlueSaturation = 30,
			CameraProfile = "Fuji Fortia SP - SO",
			Clarity2012 = 0,
			Contrast2012 = 0,
			ConvertToGrayscale = false,
			EnableCalibration = true,
			EnableColorAdjustments = true,
			EnableDetail = true,
			EnableEffects = true,
			EnableSplitToning = true,
			GrainAmount = 15,
			GrainFrequency = 35,
			GrainSize = 35,
			GreenHue = 10,
			GreenSaturation = -10,
			Highlights2012 = -25,
			HueAdjustmentAqua = 0,
			HueAdjustmentBlue = 5,
			HueAdjustmentGreen = 15,
			HueAdjustmentMagenta = 15,
			HueAdjustmentOrange = 0,
			HueAdjustmentPurple = 30,
			HueAdjustmentRed = 15,
			HueAdjustmentYellow = -15,
			LuminanceAdjustmentAqua = -15,
			LuminanceAdjustmentBlue = -25,
			LuminanceAdjustmentGreen = -25,
			LuminanceAdjustmentMagenta = -15,
			LuminanceAdjustmentOrange = -10,
			LuminanceAdjustmentPurple = -5,
			LuminanceAdjustmentRed = -20,
			LuminanceAdjustmentYellow = 0,
			ParametricDarks = 0,
			ParametricHighlightSplit = 75,
			ParametricHighlights = 0,
			ParametricLights = 0,
			ParametricMidtoneSplit = 60,
			ParametricShadowSplit = 14,
			ParametricShadows = 0,
			ProcessVersion = "6.7",
			RedHue = 15,
			RedSaturation = 10,
			Saturation = 5,
			SaturationAdjustmentAqua = 0,
			SaturationAdjustmentBlue = 10,
			SaturationAdjustmentGreen = -15,
			SaturationAdjustmentMagenta = -15,
			SaturationAdjustmentOrange = 0,
			SaturationAdjustmentPurple = 0,
			SaturationAdjustmentRed = 0,
			SaturationAdjustmentYellow = 0,
			ShadowTint = -5,
			Shadows2012 = 15,
			SharpenDetail = 25,
			SharpenEdgeMasking = 0,
			SharpenRadius = 1.2,
			Sharpness = 40,
			SplitToningBalance = 0,
			SplitToningHighlightHue = 275,
			SplitToningHighlightSaturation = 0,
			SplitToningShadowHue = 0,
			SplitToningShadowSaturation = 0,
			ToneCurveName2012 = "Custom",
			ToneCurvePV2012 = {
				0,
				0,
				255,
				255,
			},
			ToneCurvePV2012Blue = {
				0,
				0,
				54,
				26,
				104,
				114,
				170,
				205,
				255,
				253,
			},
			ToneCurvePV2012Green = {
				0,
				0,
				37,
				7,
				55,
				23,
				104,
				115,
				171,
				204,
				255,
				255,
			},
			ToneCurvePV2012Red = {
				0,
				0,
				37,
				7,
				56,
				24,
				103,
				115,
				172,
				203,
				255,
				255,
			},
			Vibrance = 0,
			Whites2012 = 0,
		},
		uuid = "F21E7D0A-6D11-43D2-AAF5-75480BB2C14E",
	},
	version = 0,
}
