data/VSCO_SONY/VSCO Film 04 - Sony/SO - Kodak E100G +.lrtemplate
s = {
	id = "A403198A-2ABC-4B9F-BE40-AE942280E578",
	internalName = "Kodak E100G +",
	title = "SO - Kodak E100G +",
	type = "Develop",
	value = {
		settings = {
			Blacks2012 = 30,
			BlueHue = 0,
			BlueSaturation = 20,
			CameraProfile = "Kodak E100G - SO",
			Clarity2012 = 0,
			Contrast2012 = 0,
			ConvertToGrayscale = false,
			EnableCalibration = true,
			EnableColorAdjustments = true,
			EnableDetail = true,
			EnableEffects = true,
			EnableSplitToning = true,
			GrainAmount = 25,
			GrainFrequency = 45,
			GrainSize = 25,
			GreenHue = 50,
			GreenSaturation = -20,
			Highlights2012 = -20,
			HueAdjustmentAqua = 0,
			HueAdjustmentBlue = 10,
			HueAdjustmentGreen = 10,
			HueAdjustmentMagenta = 0,
			HueAdjustmentOrange = 12,
			HueAdjustmentPurple = 0,
			HueAdjustmentRed = 15,
			HueAdjustmentYellow = -5,
			LuminanceAdjustmentAqua = 0,
			LuminanceAdjustmentBlue = -25,
			LuminanceAdjustmentGreen = -10,
			LuminanceAdjustmentMagenta = -15,
			LuminanceAdjustmentOrange = -12,
			LuminanceAdjustmentPurple = 0,
			LuminanceAdjustmentRed = -30,
			LuminanceAdjustmentYellow = -15,
			ParametricDarks = 0,
			ParametricHighlightSplit = 75,
			ParametricHighlights = 0,
			ParametricLights = 0,
			ParametricMidtoneSplit = 60,
			ParametricShadowSplit = 14,
			ParametricShadows = 0,
			ProcessVersion = "6.7",
			RedHue = 10,
			RedSaturation = -5,
			Saturation = 5,
			SaturationAdjustmentAqua = -25,
			SaturationAdjustmentBlue = 10,
			SaturationAdjustmentGreen = -50,
			SaturationAdjustmentMagenta = -30,
			SaturationAdjustmentOrange = 5,
			SaturationAdjustmentPurple = -30,
			SaturationAdjustmentRed = -30,
			SaturationAdjustmentYellow = 0,
			ShadowTint = 0,
			Shadows2012 = 20,
			SharpenDetail = 25,
			SharpenEdgeMasking = 0,
			SharpenRadius = 1.2,
			Sharpness = 40,
			SplitToningBalance = 0,
			SplitToningHighlightHue = 0,
			SplitToningHighlightSaturation = 0,
			SplitToningShadowHue = 0,
			SplitToningShadowSaturation = 0,
			ToneCurveName2012 = "Custom",
			ToneCurvePV2012 = {
				0,
				8,
				35,
				38,
				121,
				123,
				255,
				251,
			},
			ToneCurvePV2012Blue = {
				0,
				0,
				25,
				5,
				49,
				23,
				114,
				122,
				187,
				210,
				255,
				255,
			},
			ToneCurvePV2012Green = {
				0,
				0,
				25,
				5,
				50,
				23,
				115,
				118,
				186,
				208,
				255,
				255,
			},
			ToneCurvePV2012Red = {
				0,
				0,
				25,
				5,
				52,
				23,
				114,
				123,
				185,
				210,
				255,
				255,
			},
			Vibrance = 0,
			Whites2012 = -10,
		},
		uuid = "6057A332-2457-42C5-9DD6-6B41929F18CB",
	},
	version = 0,
}
