data/VSCO_SONY/VSCO Film 04 - Sony/~SO - Fuji Provia 400X +++.lrtemplate
s = {
	id = "236121E8-8B4C-492D-A6C6-D1A499D9D2C6",
	internalName = "Fuji Provia 400X +++",
	title = "SO - Fuji Provia 400X +++",
	type = "Develop",
	value = {
		settings = {
			Blacks2012 = 5,
			BlueHue = -10,
			BlueSaturation = 25,
			CameraProfile = "Fuji Provia 400X - SO",
			Clarity2012 = 0,
			Contrast2012 = 0,
			ConvertToGrayscale = false,
			EnableCalibration = true,
			EnableColorAdjustments = true,
			EnableDetail = true,
			EnableEffects = true,
			EnableSplitToning = true,
			GrainAmount = 45,
			GrainFrequency = 40,
			GrainSize = 35,
			GreenHue = 10,
			GreenSaturation = -10,
			Highlights2012 = -25,
			HueAdjustmentAqua = 0,
			HueAdjustmentBlue = 10,
			HueAdjustmentGreen = 12,
			HueAdjustmentMagenta = 15,
			HueAdjustmentOrange = 5,
			HueAdjustmentPurple = 30,
			HueAdjustmentRed = 10,
			HueAdjustmentYellow = -5,
			LuminanceAdjustmentAqua = -15,
			LuminanceAdjustmentBlue = -10,
			LuminanceAdjustmentGreen = -25,
			LuminanceAdjustmentMagenta = 5,
			LuminanceAdjustmentOrange = -8,
			LuminanceAdjustmentPurple = -10,
			LuminanceAdjustmentRed = -15,
			LuminanceAdjustmentYellow = 0,
			ParametricDarks = 0,
			ParametricHighlightSplit = 75,
			ParametricHighlights = 0,
			ParametricLights = 0,
			ParametricMidtoneSplit = 60,
			ParametricShadowSplit = 14,
			ParametricShadows = 0,
			ProcessVersion = "6.7",
			RedHue = 10,
			RedSaturation = 5,
			Saturation = -10,
			SaturationAdjustmentAqua = 0,
			SaturationAdjustmentBlue = 25,
			SaturationAdjustmentGreen = -30,
			SaturationAdjustmentMagenta = -20,
			SaturationAdjustmentOrange = -5,
			SaturationAdjustmentPurple = -10,
			SaturationAdjustmentRed = -10,
			SaturationAdjustmentYellow = 0,
			ShadowTint = 0,
			Shadows2012 = 15,
			SharpenDetail = 25,
			SharpenEdgeMasking = 0,
			SharpenRadius = 1.2,
			Sharpness = 40,
			SplitToningBalance = 0,
			SplitToningHighlightHue = 220,
			SplitToningHighlightSaturation = 0,
			SplitToningShadowHue = 0,
			SplitToningShadowSaturation = 0,
			ToneCurveName2012 = "Custom",
			ToneCurvePV2012 = {
				0,
				29,
				31,
				44,
				121,
				120,
				221,
				218,
				255,
				248,
			},
			ToneCurvePV2012Blue = {
				0,
				4,
				41,
				24,
				113,
				124,
				175,
				206,
				215,
				235,
				255,
				255,
			},
			ToneCurvePV2012Green = {
				0,
				0,
				43,
				20,
				117,
				120,
				182,
				199,
				255,
				255,
			},
			ToneCurvePV2012Red = {
				0,
				0,
				47,
				17,
				117,
				121,
				178,
				202,
				235,
				242,
				255,
				255,
			},
			Vibrance = 0,
			Whites2012 = -15,
		},
		uuid = "D81BB9C4-47A4-402D-ABAC-DB4DD8433A5B",
	},
	version = 0,
}
