data/VSCO_SONY/VSCO Film 04 - Sony/~SO - Fuji Astia 100F Balance Cool.lrtemplate
s = {
	id = "7E5B43E5-DA88-469E-BEC8-659759714C8F",
	internalName = "Fuji Astia 100F Balance Cool",
	title = "SO - Fuji Astia 100F Balance Cool",
	type = "Develop",
	value = {
		settings = {
			Blacks2012 = 25,
			BlueHue = -10,
			BlueSaturation = 25,
			CameraProfile = "Fuji Astia 100F - SO",
			Clarity2012 = 0,
			Contrast2012 = 0,
			ConvertToGrayscale = false,
			EnableCalibration = true,
			EnableColorAdjustments = true,
			EnableDetail = true,
			EnableEffects = true,
			EnableSplitToning = true,
			GrainAmount = 15,
			GrainFrequency = 30,
			GrainSize = 30,
			GreenHue = -10,
			GreenSaturation = -10,
			Highlights2012 = -25,
			HueAdjustmentAqua = 0,
			HueAdjustmentBlue = 5,
			HueAdjustmentGreen = 18,
			HueAdjustmentMagenta = 15,
			HueAdjustmentOrange = -2,
			HueAdjustmentPurple = 30,
			HueAdjustmentRed = 8,
			HueAdjustmentYellow = 0,
			LuminanceAdjustmentAqua = 0,
			LuminanceAdjustmentBlue = -15,
			LuminanceAdjustmentGreen = -15,
			LuminanceAdjustmentMagenta = -25,
			LuminanceAdjustmentOrange = 0,
			LuminanceAdjustmentPurple = -10,
			LuminanceAdjustmentRed = -20,
			LuminanceAdjustmentYellow = 0,
			ParametricDarks = 0,
			ParametricHighlightSplit = 75,
			ParametricHighlights = 0,
			ParametricLights = 0,
			ParametricMidtoneSplit = 60,
			ParametricShadowSplit = 14,
			ParametricShadows = 0,
			ProcessVersion = "6.7",
			RedHue = 10,
			RedSaturation = 0,
			Saturation = 5,
			SaturationAdjustmentAqua = -15,
			SaturationAdjustmentBlue = 0,
			SaturationAdjustmentGreen = -30,
			SaturationAdjustmentMagenta = -20,
			SaturationAdjustmentOrange = -5,
			SaturationAdjustmentPurple = -10,
			SaturationAdjustmentRed = -10,
			SaturationAdjustmentYellow = 0,
			ShadowTint = 0,
			Shadows2012 = 15,
			SharpenDetail = 25,
			SharpenEdgeMasking = 0,
			SharpenRadius = 1.2,
			Sharpness = 40,
			SplitToningBalance = 0,
			SplitToningHighlightHue = 0,
			SplitToningHighlightSaturation = 0,
			SplitToningShadowHue = 0,
			SplitToningShadowSaturation = 0,
			ToneCurveName2012 = "Custom",
			ToneCurvePV2012 = {
				0,
				0,
				255,
				255,
			},
			ToneCurvePV2012Blue = {
				0,
				0,
				40,
				26,
				118,
				126,
				180,
				203,
				255,
				255,
			},
			ToneCurvePV2012Green = {
				0,
				0,
				40,
				25,
				119,
				125,
				183,
				198,
				255,
				255,
			},
			ToneCurvePV2012Red = {
				0,
				0,
				42,
				24,
				119,
				121,
				186,
				193,
				255,
				255,
			},
			Vibrance = 0,
			Whites2012 = 0,
		},
		uuid = "2478686A-0B6F-4E96-930B-F0A5E9F00147",
	},
	version = 0,
}
