data/VSCO_SONY/VSCO Film 04 - Sony/~SO - Agfa Scala 200 --+.lrtemplate
s = {
	id = "0D12D042-194E-4EDF-A970-CFF50555BD44",
	internalName = "Agfa Scala 200 +",
	title = "SO - Agfa Scala 200 -/+",
	type = "Develop",
	value = {
		settings = {
			Blacks2012 = 15,
			BlueHue = 0,
			BlueSaturation = 0,
			CameraProfile = "Agfa Scala 200 - SO",
			Clarity2012 = 0,
			Contrast2012 = 0,
			ConvertToGrayscale = true,
			EnableCalibration = true,
			EnableDetail = true,
			EnableEffects = true,
			EnableGrayscaleMix = true,
			EnableSplitToning = true,
			GrainAmount = 25,
			GrainFrequency = 50,
			GrainSize = 20,
			GrayMixerAqua = -10,
			GrayMixerBlue = 15,
			GrayMixerGreen = -22,
			GrayMixerMagenta = 8,
			GrayMixerOrange = -10,
			GrayMixerPurple = 20,
			GrayMixerRed = -8,
			GrayMixerYellow = -15,
			GreenHue = 0,
			GreenSaturation = 0,
			Highlights2012 = -15,
			ParametricDarks = 0,
			ParametricHighlightSplit = 75,
			ParametricHighlights = 0,
			ParametricLights = 0,
			ParametricMidtoneSplit = 50,
			ParametricShadowSplit = 25,
			ParametricShadows = 0,
			ProcessVersion = "6.7",
			RedHue = 0,
			RedSaturation = 0,
			ShadowTint = 0,
			Shadows2012 = 25,
			SharpenDetail = 25,
			SharpenEdgeMasking = 0,
			SharpenRadius = 1.2,
			Sharpness = 40,
			SplitToningBalance = 0,
			SplitToningHighlightHue = 80,
			SplitToningHighlightSaturation = 0,
			SplitToningShadowHue = 200,
			SplitToningShadowSaturation = 0,
			ToneCurveName2012 = "Custom",
			ToneCurvePV2012 = {
				0,
				22,
				63,
				69,
				225,
				223,
				255,
				251,
			},
			ToneCurvePV2012Blue = {
				0,
				0,
				255,
				255,
			},
			ToneCurvePV2012Green = {
				0,
				0,
				255,
				255,
			},
			ToneCurvePV2012Red = {
				0,
				0,
				255,
				255,
			},
			Whites2012 = 0,
		},
		uuid = "92E3F60A-F326-4EB6-8846-C06F1E59FF48",
	},
	version = 0,
}
