data/VSCO_NIKON/VSCO Film 03 Professional - Nikon/N - Fuji FP-100c ++ Alt.lrtemplate
s = {
	id = "D993F5FD-A3E7-44BA-91E4-55DF9FAF5CA5",
	internalName = "Fuji FP-100c ++ Alt 2",
	title = "N - Fuji FP-100c ++ Alt",
	type = "Develop",
	value = {
		settings = {
			Blacks2012 = -20,
			BlueHue = 0,
			BlueSaturation = 12,
			CameraProfile = "Fuji FP-100c N",
			Clarity2012 = -10,
			Contrast2012 = 0,
			ConvertToGrayscale = false,
			EnableCalibration = true,
			EnableColorAdjustments = true,
			EnableDetail = true,
			EnableEffects = true,
			EnableSplitToning = true,
			GrainAmount = 10,
			GrainFrequency = 10,
			GrainSize = 10,
			GreenHue = -5,
			GreenSaturation = 0,
			Highlights2012 = -10,
			HueAdjustmentAqua = 25,
			HueAdjustmentBlue = -5,
			HueAdjustmentGreen = 0,
			HueAdjustmentMagenta = 0,
			HueAdjustmentOrange = 0,
			HueAdjustmentPurple = 30,
			HueAdjustmentRed = 15,
			HueAdjustmentYellow = -5,
			LuminanceAdjustmentAqua = -15,
			LuminanceAdjustmentBlue = -40,
			LuminanceAdjustmentGreen = -30,
			LuminanceAdjustmentMagenta = -20,
			LuminanceAdjustmentOrange = -10,
			LuminanceAdjustmentPurple = 0,
			LuminanceAdjustmentRed = -25,
			LuminanceAdjustmentYellow = -25,
			ParametricDarks = 0,
			ParametricHighlightSplit = 75,
			ParametricHighlights = 0,
			ParametricLights = 0,
			ParametricMidtoneSplit = 50,
			ParametricShadowSplit = 25,
			ParametricShadows = 0,
			ProcessVersion = "6.7",
			RedHue = 10,
			RedSaturation = -15,
			Saturation = -15,
			SaturationAdjustmentAqua = -20,
			SaturationAdjustmentBlue = -30,
			SaturationAdjustmentGreen = -32,
			SaturationAdjustmentMagenta = -45,
			SaturationAdjustmentOrange = -16,
			SaturationAdjustmentPurple = 0,
			SaturationAdjustmentRed = -15,
			SaturationAdjustmentYellow = 0,
			ShadowTint = 0,
			Shadows2012 = 20,
			SharpenDetail = 25,
			SharpenEdgeMasking = 0,
			SharpenRadius = 1,
			Sharpness = 0,
			SplitToningBalance = 0,
			SplitToningHighlightHue = 0,
			SplitToningHighlightSaturation = 0,
			SplitToningShadowHue = 0,
			SplitToningShadowSaturation = 0,
			ToneCurveName2012 = "Custom",
			ToneCurvePV2012 = {
				0,
				71,
				49,
				87,
				118,
				138,
				197,
				196,
				255,
				233,
			},
			ToneCurvePV2012Blue = {
				0,
				1,
				43,
				15,
				131,
				122,
				223,
				234,
				255,
				255,
			},
			ToneCurvePV2012Green = {
				0,
				13,
				36,
				24,
				125,
				128,
				223,
				230,
				255,
				247,
			},
			ToneCurvePV2012Red = {
				0,
				10,
				31,
				25,
				124,
				125,
				224,
				232,
				255,
				251,
			},
			Vibrance = 0,
			Whites2012 = -10,
		},
		uuid = "B12173A2-851E-46B8-9013-2702ADC825F3",
	},
	version = 0,
}
